;-- START GCODE --
;Sliced for Type A Machines Series 1
;Sliced at: Wed 25-11-2015 19:54:26
;Basic settings: Layer height: 0.15 Walls: 0.8 Fill: 25
;Print Speed: 100 Support: 0
;Retraction Speed: 60 Retraction Distance: 1.4
;Print time: 2 hours 32 minutes
;Filament used: 14.908m 44.0g
;Filament cost: None
G21        ;metric values
G90        ;absolute positioning
G28     ;move to endstops
G29		;allows for auto-levelling
G1 X150 Y5  Z15.0 F12000 ;center and move the platform down 15mm
M109 S220 ;Heat To temp
G1 X150 Y5 Z0.3 ;move the platform to purge extrusion
G92 E0 ;zero the extruded length
G1 F200 X250 E30 ;extrude 30mm of feed stock
G92 E0 ;zero the extruded length again
G1 X150 Y150  Z25 F12000 ;recenter and begin
G1 F12000

;Layer count: 6
;LAYER:0
M107
G0 F12000 X7.84 Y76.93 Z0.20
;TYPE:SKIRT
G1 F2700 X297.16 Y76.93 E9.62256
G1 X297.16 Y228.07 E14.64969
G1 X7.84 Y228.07 E24.27225
G1 X7.84 Y76.93 E29.29939
G1 F3600 E27.89939
G0 F12000 X11.64 Y80.73
;TYPE:WALL-INNER
G1 F3600 E29.29939
G1 F2700 X293.36 Y80.73 E38.66916
G1 X293.36 Y224.27 E43.44352
G1 X11.64 Y224.27 E52.81330
G1 X11.64 Y80.73 E57.58766
G1 F3600 E56.18766
G0 F12000 X49.70 Y132.94
G1 F3600 E57.58766
G1 F2700 X49.29 Y133.25 E57.60479
G1 X48.21 Y134.07 E57.64995
G1 X47.80 Y134.38 E57.66712
G1 X47.36 Y134.73 E57.68586
G1 X46.91 Y135.13 E57.70591
G1 X46.53 Y135.56 E57.72498
G1 X46.34 Y135.84 E57.73619
G1 X46.18 Y136.13 E57.74749
G1 X46.03 Y136.76 E57.76885
G1 X46.04 Y137.20 E57.78355
G1 X46.09 Y137.65 E57.79859
G1 X46.27 Y138.16 E57.81633
G1 X46.56 Y138.61 E57.83413
G1 X46.94 Y138.98 E57.85212
G1 X47.41 Y139.26 E57.87014
G1 X47.91 Y139.43 E57.88791
G1 X48.45 Y139.48 E57.90565
G1 X48.97 Y139.41 E57.92337
G1 X49.51 Y139.22 E57.94221
G1 X49.91 Y139.00 E57.95742
G1 X50.62 Y138.47 E57.98683
G1 X51.33 Y137.92 E58.01684
G1 X51.75 Y137.59 E58.03469
G1 X52.47 Y137.04 E58.06453
G1 X52.89 Y136.73 E58.08207
G1 X53.62 Y136.20 E58.11217
G1 X54.05 Y135.90 E58.12954
G1 X54.83 Y135.38 E58.16051
G1 X55.53 Y134.93 E58.18834
G1 X56.27 Y134.48 E58.21716
G1 X57.34 Y133.91 E58.25760
G1 X58.04 Y133.60 E58.28294
G1 X58.83 Y133.30 E58.31104
G1 X60.01 Y132.97 E58.35192
G1 X60.76 Y132.84 E58.37722
G1 X61.56 Y132.78 E58.40380
G1 X61.99 Y132.78 E58.41807
G1 X62.46 Y132.81 E58.43373
G1 X63.28 Y132.92 E58.46135
G1 X63.77 Y133.02 E58.47785
G1 X64.64 Y133.27 E58.50792
G1 X65.84 Y133.74 E58.55098
G1 X66.61 Y134.11 E58.57926
G1 X67.35 Y134.52 E58.60729
G1 X68.09 Y134.97 E58.63618
G1 X69.25 Y135.74 E58.68250
G1 X69.68 Y136.04 E58.70009
G1 X70.41 Y136.56 E58.72978
G1 X70.83 Y136.88 E58.74737
G1 X71.28 Y137.21 E58.76597
G1 X71.73 Y137.55 E58.78475
G1 X72.18 Y137.90 E58.80363
G1 X73.03 Y138.56 E58.83936
G1 X73.72 Y139.08 E58.86808
G1 X74.41 Y139.62 E58.89726
G1 X75.12 Y140.16 E58.92691
G1 X75.53 Y140.46 E58.94375
G1 X76.22 Y140.96 E58.97225
G1 X76.65 Y141.26 E58.98955
G1 X77.41 Y141.78 E59.02018
G1 X77.88 Y142.10 E59.03912
G1 X78.31 Y142.38 E59.05629
G1 X78.77 Y142.66 E59.07402
G1 X79.22 Y142.93 E59.09162
G1 X79.91 Y143.32 E59.11790
G1 X80.69 Y143.72 E59.14715
G1 X81.53 Y144.11 E59.17773
G1 X82.03 Y144.32 E59.19576
G1 X82.91 Y144.65 E59.22705
G1 X83.41 Y144.81 E59.24456
G1 X83.91 Y144.96 E59.26202
G1 X84.42 Y145.08 E59.27950
G1 X84.94 Y145.19 E59.29702
G1 X85.46 Y145.27 E59.31453
G1 X85.98 Y145.34 E59.33204
G1 X86.50 Y145.39 E59.34955
G1 X87.03 Y145.43 E59.36702
G1 X87.55 Y145.44 E59.38438
G1 X88.14 Y145.43 E59.40388
G1 X89.09 Y145.37 E59.43575
G1 X89.66 Y145.29 E59.45493
G1 X90.31 Y145.17 E59.47680
G1 X90.20 Y145.36 E59.48414
G1 X90.00 Y145.86 E59.50215
G1 X89.85 Y146.31 E59.51784
G1 X89.69 Y147.18 E59.54717
G1 X89.65 Y147.65 E59.56288
G1 X89.66 Y148.19 E59.58074
G1 X89.77 Y149.06 E59.61015
G1 X90.04 Y149.99 E59.64211
G1 X90.26 Y150.51 E59.66089
G1 X90.48 Y150.96 E59.67762
G1 X90.75 Y151.39 E59.69456
G1 X91.01 Y151.77 E59.70992
G1 X91.39 Y152.23 E59.72973
G1 X91.77 Y152.63 E59.74790
G1 X92.17 Y153.00 E59.76602
G1 X92.80 Y153.50 E59.79288
G1 X93.06 Y153.67 E59.80314
G1 X92.81 Y154.16 E59.82141
G1 X92.44 Y155.06 E59.85352
G1 X92.27 Y155.62 E59.87317
G1 X92.05 Y156.55 E59.90488
G1 X91.97 Y157.13 E59.92427
G1 X91.93 Y157.58 E59.93954
G1 X91.90 Y158.17 E59.95921
G1 X91.93 Y159.16 E59.99212
G1 X92.00 Y159.74 E60.01148
G1 X92.20 Y160.67 E60.04303
G1 X92.38 Y161.22 E60.06250
G1 X92.58 Y161.71 E60.07997
G1 X93.01 Y162.57 E60.11202
G1 X93.32 Y163.08 E60.13190
G1 X93.89 Y163.87 E60.16426
G1 X94.28 Y164.32 E60.18423
G1 X94.97 Y165.01 E60.21664
G1 X95.43 Y165.39 E60.23633
G1 X96.29 Y166.00 E60.27132
G1 X97.12 Y166.47 E60.30329
G1 X97.67 Y166.71 E60.32301
G1 X98.57 Y167.01 E60.35459
G1 X99.13 Y167.13 E60.37368
G1 X99.69 Y167.21 E60.39255
G1 X100.27 Y167.24 E60.41194
G1 X101.15 Y167.27 E60.44099
G1 X103.77 Y167.31 E60.52827
G1 X105.80 Y167.32 E60.59592
G1 X109.90 Y167.31 E60.73212
G1 X110.59 Y167.23 E60.75530
G1 X111.20 Y166.89 E60.77844
G1 X111.54 Y166.29 E60.80133
G1 X111.64 Y165.60 E60.82428
G1 X111.67 Y164.29 E60.86787
G1 X111.41 Y163.34 E60.90095
G1 X110.61 Y162.75 E60.93409
G1 X108.75 Y162.12 E60.99910
G1 X108.89 Y161.96 E61.00626
G1 X109.45 Y161.03 E61.04245
G1 X109.86 Y160.04 E61.07802
G1 X110.12 Y158.98 E61.11420
G1 X110.25 Y157.33 E61.16940
G1 X110.07 Y155.72 E61.22337
G1 X109.59 Y154.19 E61.27640
G1 X108.83 Y152.80 E61.32906
G1 X107.83 Y151.58 E61.38169
G1 X106.61 Y150.55 E61.43483
G1 X105.19 Y149.76 E61.48888
G1 X103.60 Y149.25 E61.54447
G1 X101.15 Y148.96 E61.62659
G1 X101.15 Y149.01 E61.62835
G1 X100.14 Y149.07 E61.66187
G1 X99.61 Y149.11 E61.67939
G1 X99.09 Y149.16 E61.69685
G1 X98.57 Y149.23 E61.71423
G1 X98.06 Y149.29 E61.73147
G1 X97.42 Y149.34 E61.75299
G1 X97.08 Y149.31 E61.76401
G1 X96.88 Y149.26 E61.77090
G1 X96.66 Y149.17 E61.77890
G1 X96.47 Y149.04 E61.78651
G1 X96.33 Y148.89 E61.79338
G1 X96.21 Y148.73 E61.80011
G1 X96.13 Y148.54 E61.80703
G1 X96.08 Y148.33 E61.81402
G1 X96.06 Y148.12 E61.82129
G1 X96.08 Y147.88 E61.82904
G1 X96.13 Y147.71 E61.83514
G1 X96.22 Y147.53 E61.84176
G1 X96.33 Y147.40 E61.84718
G1 X96.46 Y147.28 E61.85317
G1 X96.63 Y147.19 E61.85955
G1 X96.85 Y147.11 E61.86724
G1 X97.05 Y147.06 E61.87420
G1 X97.87 Y147.04 E61.90139
G1 X98.77 Y147.03 E61.93145
G1 X100.21 Y147.03 E61.97935
G1 X101.15 Y147.03 E62.01045
G1 X102.89 Y147.03 E62.06832
G1 X103.42 Y147.03 E62.08625
G1 X103.97 Y147.03 E62.10431
G1 X104.86 Y146.99 E62.13391
G1 X105.40 Y146.93 E62.15208
G1 X106.28 Y146.77 E62.18168
G1 X107.19 Y146.51 E62.21311
G1 X107.69 Y146.33 E62.23116
G1 X108.52 Y145.94 E62.26141
G1 X109.00 Y145.67 E62.27991
G1 X109.77 Y145.15 E62.31071
G1 X110.20 Y144.78 E62.32963
G1 X110.83 Y144.13 E62.35957
G1 X111.17 Y143.69 E62.37803
G1 X111.65 Y142.94 E62.40768
G1 X112.04 Y142.09 E62.43899
G1 X112.22 Y141.58 E62.45692
G1 X112.34 Y141.11 E62.47295
G1 X112.50 Y140.25 E62.50210
G1 X112.54 Y139.76 E62.51828
G1 X112.54 Y139.27 E62.53458
G1 X112.47 Y138.33 E62.56611
G1 X112.37 Y137.77 E62.58485
G1 X112.13 Y136.89 E62.61530
G1 X111.93 Y136.36 E62.63425
G1 X111.71 Y135.89 E62.65146
G1 X111.24 Y135.06 E62.68325
G1 X110.89 Y134.57 E62.70325
G1 X110.29 Y133.84 E62.73479
G1 X109.93 Y133.47 E62.75172
G1 X110.87 Y133.14 E62.78484
G1 X111.82 Y132.91 E62.81725
G1 X112.32 Y132.84 E62.83426
G1 X113.24 Y132.78 E62.86486
G1 X113.69 Y132.79 E62.87966
G1 X114.50 Y132.86 E62.90675
G1 X115.23 Y133.00 E62.93170
G1 X115.27 Y133.00 E62.93276
G1 X114.97 Y133.27 E62.94597
G1 X114.59 Y133.67 E62.96434
G1 X114.00 Y134.46 E62.99701
G1 X113.70 Y134.96 E63.01661
G1 X113.50 Y135.38 E63.03194
G1 X113.29 Y135.91 E63.05095
G1 X113.14 Y136.41 E63.06824
G1 X112.98 Y137.32 E63.09903
G1 X112.96 Y137.84 E63.11625
G1 X112.99 Y138.40 E63.13486
G1 X113.06 Y138.90 E63.15168
G1 X113.18 Y139.39 E63.16860
G1 X113.36 Y139.87 E63.18571
G1 X113.58 Y140.34 E63.20299
G1 X113.81 Y140.74 E63.21813
G1 X114.15 Y141.18 E63.23689
G1 X114.76 Y141.84 E63.26667
G1 X115.13 Y142.21 E63.28400
G1 X115.40 Y142.50 E63.29729
G1 X114.91 Y142.79 E63.31634
G1 X114.45 Y143.13 E63.33530
G1 X113.81 Y143.73 E63.36453
G1 X113.49 Y144.09 E63.38049
G1 X113.19 Y144.51 E63.39784
G1 X112.77 Y145.24 E63.42571
G1 X112.46 Y146.07 E63.45517
G1 X112.27 Y146.92 E63.48408
G1 X112.22 Y147.37 E63.49910
G1 X112.21 Y147.81 E63.51380
G1 X112.23 Y148.31 E63.53048
G1 X112.35 Y149.13 E63.55802
G1 X112.60 Y149.99 E63.58805
G1 X112.98 Y150.84 E63.61868
G1 X113.47 Y151.63 E63.64978
G1 X113.81 Y152.07 E63.66828
G1 X114.43 Y152.74 E63.69868
G1 X114.87 Y153.13 E63.71810
G1 X115.62 Y153.68 E63.74904
G1 X115.17 Y154.65 E63.78450
G1 X114.89 Y155.39 E63.81098
G1 X114.68 Y156.15 E63.83714
G1 X114.50 Y157.09 E63.86894
G1 X114.44 Y157.67 E63.88831
G1 X114.41 Y158.24 E63.90744
G1 X114.43 Y158.82 E63.92674
G1 X114.52 Y159.59 E63.95239
G1 X114.69 Y160.36 E63.97854
G1 X114.93 Y161.12 E64.00529
G1 X115.25 Y161.89 E64.03283
G1 X115.63 Y162.63 E64.06065
G1 X116.06 Y163.31 E64.08747
G1 X116.52 Y163.96 E64.11382
G1 X117.02 Y164.55 E64.13971
G1 X117.56 Y165.09 E64.16520
G1 X118.00 Y165.47 E64.18436
G1 X118.46 Y165.81 E64.20335
G1 X118.94 Y166.12 E64.22242
G1 X119.45 Y166.39 E64.24153
G1 X119.98 Y166.63 E64.26076
G1 X120.53 Y166.83 E64.28037
G1 X121.30 Y167.04 E64.30675
G1 X122.18 Y167.19 E64.33656
G1 X122.75 Y167.23 E64.35555
G1 X123.66 Y167.27 E64.38588
G1 X123.81 Y167.28 E64.39077
G1 X126.28 Y167.31 E64.47300
G1 X128.31 Y167.32 E64.54052
G1 X132.39 Y167.31 E64.67632
G1 X133.13 Y167.23 E64.70090
G1 X133.76 Y166.88 E64.72518
G1 X134.09 Y166.23 E64.74936
G1 X134.15 Y165.49 E64.77393
G1 X134.16 Y164.09 E64.82032
G1 X133.95 Y163.16 E64.85204
G1 X133.13 Y162.71 E64.88326
G1 X131.88 Y162.29 E64.92703
G1 X131.30 Y162.11 E64.94720
G1 X131.66 Y161.67 E64.96612
G1 X132.32 Y160.40 E65.01371
G1 X132.69 Y159.05 E65.06015
G1 X132.84 Y157.65 E65.10715
G1 X132.76 Y156.19 E65.15579
G1 X132.40 Y154.78 E65.20409
G1 X131.81 Y153.46 E65.25222
G1 X131.00 Y152.26 E65.30035
G1 X130.00 Y151.21 E65.34858
G1 X128.83 Y150.34 E65.39710
G1 X127.52 Y149.67 E65.44602
G1 X126.09 Y149.24 E65.49560
G1 X123.66 Y148.96 E65.57695
G1 X123.66 Y149.01 E65.57865
G1 X122.66 Y149.07 E65.61183
G1 X122.15 Y149.11 E65.62906
G1 X121.64 Y149.17 E65.64616
G1 X121.13 Y149.23 E65.66321
G1 X120.63 Y149.30 E65.68000
G1 X120.01 Y149.35 E65.70065
G1 X119.70 Y149.32 E65.71105
G1 X119.50 Y149.28 E65.71775
G1 X119.28 Y149.19 E65.72567
G1 X119.09 Y149.07 E65.73329
G1 X118.92 Y148.91 E65.74096
G1 X118.78 Y148.73 E65.74839
G1 X118.68 Y148.53 E65.75591
G1 X118.62 Y148.33 E65.76281
G1 X118.59 Y148.13 E65.76955
G1 X118.61 Y147.95 E65.77542
G1 X118.67 Y147.73 E65.78310
G1 X118.76 Y147.57 E65.78927
G1 X118.85 Y147.45 E65.79428
G1 X119.02 Y147.30 E65.80189
G1 X119.17 Y147.20 E65.80775
G1 X119.37 Y147.12 E65.81497
G1 X119.62 Y147.06 E65.82345
G1 X120.43 Y147.03 E65.85027
G1 X121.31 Y147.03 E65.87977
G1 X121.84 Y147.03 E65.89737
G1 X122.73 Y147.03 E65.92690
G1 X123.81 Y147.04 E65.96272
G1 X124.78 Y147.03 E65.99502
G1 X125.30 Y147.03 E66.01222
G1 X125.81 Y147.03 E66.02945
G1 X126.33 Y147.02 E66.04681
G1 X126.86 Y147.00 E66.06422
G1 X127.39 Y146.96 E66.08185
G1 X127.92 Y146.90 E66.09962
G1 X128.44 Y146.82 E66.11736
G1 X128.97 Y146.72 E66.13528
G1 X129.69 Y146.52 E66.16004
G1 X130.38 Y146.28 E66.18421
G1 X130.90 Y146.04 E66.20338
G1 X131.40 Y145.78 E66.22214
G1 X131.87 Y145.49 E66.24060
G1 X132.32 Y145.17 E66.25888
G1 X132.76 Y144.80 E66.27810
G1 X133.30 Y144.26 E66.30341
G1 X133.34 Y144.21 E66.30561
G1 X133.89 Y144.43 E66.32498
G1 X134.38 Y144.60 E66.34231
G1 X134.88 Y144.78 E66.35989
G1 X135.38 Y144.93 E66.37763
G1 X135.90 Y145.07 E66.39541
G1 X136.42 Y145.18 E66.41315
G1 X136.95 Y145.28 E66.43090
G1 X137.47 Y145.35 E66.44860
G1 X138.01 Y145.41 E66.46638
G1 X138.54 Y145.44 E66.48414
G1 X139.07 Y145.45 E66.50190
G1 X139.61 Y145.44 E66.51973
G1 X140.15 Y145.41 E66.53759
G1 X140.68 Y145.36 E66.55553
G1 X141.22 Y145.28 E66.57345
G1 X141.75 Y145.19 E66.59151
G1 X142.28 Y145.08 E66.60960
G1 X142.80 Y144.95 E66.62743
G1 X143.31 Y144.81 E66.64489
G1 X143.83 Y144.64 E66.66307
G1 X144.51 Y144.39 E66.68712
G1 X145.18 Y144.11 E66.71129
G1 X145.67 Y143.88 E66.72933
G1 X146.14 Y143.64 E66.74687
G1 X146.60 Y143.40 E66.76408
G1 X147.07 Y143.14 E66.78199
G1 X147.53 Y142.88 E66.79970
G1 X147.98 Y142.62 E66.81684
G1 X148.43 Y142.34 E66.83465
G1 X148.88 Y142.05 E66.85213
G1 X149.33 Y141.75 E66.87036
G1 X149.80 Y141.43 E66.88928
G1 X150.25 Y141.11 E66.90768
G1 X150.69 Y140.79 E66.92552
G1 X151.11 Y140.48 E66.94284
G1 X151.53 Y140.16 E66.96053
G1 X152.08 Y139.75 E66.98356
G1 X152.48 Y139.44 E67.00026
G1 X153.02 Y139.03 E67.02280
G1 X154.38 Y137.97 E67.08018
G1 X154.78 Y137.67 E67.09690
G1 X155.20 Y137.34 E67.11451
G1 X155.78 Y136.91 E67.13858
G1 X156.39 Y136.47 E67.16347
G1 X157.20 Y135.89 E67.19667
G1 X157.62 Y135.60 E67.21352
G1 X158.05 Y135.32 E67.23079
G1 X158.48 Y135.04 E67.24772
G1 X158.91 Y134.77 E67.26471
G1 X159.51 Y134.41 E67.28793
G1 X160.51 Y133.88 E67.32557
G1 X160.97 Y133.68 E67.34221
G1 X161.63 Y133.41 E67.36598
G1 X162.55 Y133.11 E67.39813
G1 X163.63 Y132.87 E67.43481
G1 X164.26 Y132.80 E67.45603
G1 X164.91 Y132.78 E67.47776
G1 X165.53 Y132.80 E67.49837
G1 X166.19 Y132.88 E67.52051
G1 X167.15 Y133.09 E67.55289
G1 X167.59 Y133.21 E67.56820
G1 X168.23 Y133.44 E67.59072
G1 X169.29 Y133.91 E67.62929
G1 X169.75 Y134.14 E67.64650
G1 X170.36 Y134.46 E67.66947
G1 X170.79 Y134.71 E67.68603
G1 X171.13 Y134.92 E67.69921
G1 X171.13 Y138.32 E67.81246
G1 X171.13 Y138.86 E67.83022
G1 X171.13 Y160.72 E68.55716
G1 X171.12 Y161.24 E68.57445
G1 X171.12 Y163.84 E68.66103
G1 X171.13 Y164.89 E68.69602
G1 X171.14 Y165.20 E68.70647
G1 X171.21 Y165.68 E68.72239
G1 X171.36 Y166.05 E68.73559
G1 X171.59 Y166.37 E68.74885
G1 X171.91 Y166.60 E68.76206
G1 X172.27 Y166.74 E68.77484
G1 X172.55 Y166.79 E68.78432
G1 X173.11 Y166.82 E68.80287
G1 X173.45 Y166.82 E68.81415
G1 X173.97 Y166.82 E68.83148
G1 X174.24 Y166.83 E68.84049
G1 X174.79 Y166.80 E68.85870
G1 X175.11 Y166.73 E68.86971
G1 X175.41 Y166.60 E68.88058
G1 X175.70 Y166.35 E68.89328
G1 X175.89 Y166.06 E68.90479
G1 X176.32 Y165.05 E68.94120
G1 X176.98 Y165.54 E68.96854
G1 X177.45 Y165.84 E68.98709
G1 X178.09 Y166.20 E69.01162
G1 X178.58 Y166.44 E69.02974
G1 X179.25 Y166.72 E69.05374
G1 X179.95 Y166.96 E69.07844
G1 X180.66 Y167.14 E69.10279
G1 X181.69 Y167.33 E69.13760
G1 X181.69 Y167.36 E69.13880
G1 X183.74 Y167.27 E69.20702
G1 X185.19 Y166.96 E69.25635
G1 X186.60 Y166.41 E69.30673
G1 X187.94 Y165.62 E69.35859
G1 X188.95 Y164.84 E69.40097
G1 X189.83 Y163.98 E69.44182
G1 X190.58 Y163.04 E69.48175
G1 X191.21 Y162.04 E69.52134
G1 X191.72 Y160.96 E69.56087
G1 X192.12 Y159.83 E69.60083
G1 X192.40 Y158.64 E69.64157
G1 X192.57 Y157.38 E69.68376
G1 X192.60 Y155.51 E69.74596
G1 X192.33 Y153.69 E69.80711
G1 X191.79 Y151.96 E69.86729
G1 X190.99 Y150.37 E69.92667
G1 X189.95 Y148.93 E69.98564
G1 X188.69 Y147.68 E70.04460
G1 X187.23 Y146.66 E70.10390
G1 X185.58 Y145.91 E70.16411
G1 X183.94 Y145.47 E70.22071
G1 X181.69 Y145.28 E70.29575
G1 X181.69 Y145.33 E70.29721
G1 X180.61 Y145.48 E70.33347
G1 X180.05 Y145.60 E70.35257
G1 X178.85 Y145.94 E70.39403
G1 X178.41 Y146.10 E70.40978
G1 X178.40 Y140.26 E70.60409
G1 X179.14 Y140.80 E70.63437
G1 X179.58 Y141.12 E70.65248
G1 X180.02 Y141.43 E70.67042
G1 X180.46 Y141.74 E70.68825
G1 X180.91 Y142.03 E70.70600
G1 X181.35 Y142.32 E70.72370
G1 X181.81 Y142.60 E70.74148
G1 X182.27 Y142.87 E70.75936
G1 X182.74 Y143.14 E70.77731
G1 X183.22 Y143.40 E70.79554
G1 X183.69 Y143.64 E70.81291
G1 X184.16 Y143.87 E70.83036
G1 X184.82 Y144.17 E70.85444
G1 X185.30 Y144.38 E70.87183
G1 X185.79 Y144.57 E70.88947
G1 X186.30 Y144.75 E70.90736
G1 X186.81 Y144.91 E70.92534
G1 X187.34 Y145.04 E70.94345
G1 X187.88 Y145.16 E70.96165
G1 X188.42 Y145.26 E70.97992
G1 X188.96 Y145.33 E70.99829
G1 X189.52 Y145.38 E71.01673
G1 X190.07 Y145.42 E71.03519
G1 X190.63 Y145.43 E71.05379
G1 X191.17 Y145.42 E71.07165
G1 X191.88 Y145.37 E71.09551
G1 X192.41 Y145.32 E71.11330
G1 X193.12 Y145.22 E71.13703
G1 X193.64 Y145.12 E71.15464
G1 X194.33 Y144.95 E71.17831
G1 X194.84 Y144.80 E71.19592
G1 X195.51 Y144.58 E71.21951
G1 X196.03 Y144.38 E71.23800
G1 X196.53 Y144.18 E71.25577
G1 X197.01 Y143.97 E71.27309
G1 X197.49 Y143.75 E71.29092
G1 X198.12 Y143.43 E71.31418
G1 X198.57 Y143.18 E71.33143
G1 X199.05 Y142.91 E71.34968
G1 X199.50 Y142.63 E71.36739
G1 X199.94 Y142.36 E71.38461
G1 X200.39 Y142.07 E71.40231
G1 X200.82 Y141.78 E71.41965
G1 X201.27 Y141.48 E71.43756
G1 X201.70 Y141.18 E71.45521
G1 X202.13 Y140.87 E71.47269
G1 X202.55 Y140.56 E71.49000
G1 X202.97 Y140.25 E71.50747
G1 X203.48 Y139.87 E71.52849
G1 X204.01 Y139.47 E71.55061
G1 X205.98 Y137.94 E71.63343
G1 X206.53 Y137.52 E71.65651
G1 X207.09 Y137.10 E71.67983
G1 X208.04 Y136.40 E71.71904
G1 X208.87 Y135.81 E71.75295
G1 X209.29 Y135.52 E71.76990
G1 X209.72 Y135.24 E71.78689
G1 X210.16 Y134.96 E71.80427
G1 X210.58 Y134.70 E71.82087
G1 X211.65 Y134.11 E71.86138
G1 X212.64 Y133.64 E71.89774
G1 X213.27 Y133.38 E71.92057
G1 X213.91 Y133.16 E71.94303
G1 X214.53 Y133.00 E71.96431
G1 X215.17 Y132.88 E71.98609
G1 X215.83 Y132.81 E72.00804
G1 X216.49 Y132.79 E72.03010
G1 X217.13 Y132.82 E72.05134
G1 X217.78 Y132.89 E72.07324
G1 X218.43 Y133.02 E72.09513
G1 X219.07 Y133.19 E72.11736
G1 X219.98 Y133.52 E72.14942
G1 X220.44 Y133.71 E72.16615
G1 X221.46 Y134.21 E72.20377
G1 X221.93 Y134.46 E72.22132
G1 X222.39 Y134.73 E72.23916
G1 X223.23 Y135.26 E72.27213
G1 X223.67 Y135.55 E72.28962
G1 X224.09 Y135.83 E72.30645
G1 X224.51 Y136.13 E72.32360
G1 X225.32 Y136.72 E72.35693
G1 X225.80 Y137.07 E72.37696
G1 X226.35 Y137.49 E72.39991
G1 X226.91 Y137.91 E72.42310
G1 X228.43 Y139.09 E72.48717
G1 X228.95 Y139.50 E72.50906
G1 X229.48 Y139.90 E72.53123
G1 X230.02 Y140.30 E72.55361
G1 X230.57 Y140.70 E72.57616
G1 X230.98 Y141.00 E72.59320
G1 X231.40 Y141.30 E72.61032
G1 X231.83 Y141.60 E72.62753
G1 X232.26 Y141.89 E72.64496
G1 X232.70 Y142.19 E72.66263
G1 X233.16 Y142.47 E72.68051
G1 X233.61 Y142.75 E72.69808
G1 X234.05 Y143.01 E72.71531
G1 X234.52 Y143.27 E72.73288
G1 X234.99 Y143.52 E72.75085
G1 X235.46 Y143.75 E72.76797
G1 X236.10 Y144.05 E72.79175
G1 X236.60 Y144.27 E72.80992
G1 X237.09 Y144.47 E72.82753
G1 X237.60 Y144.65 E72.84537
G1 X238.09 Y144.80 E72.86244
G1 X238.62 Y144.95 E72.88083
G1 X239.17 Y145.07 E72.89945
G1 X239.71 Y145.17 E72.91767
G1 X240.39 Y145.27 E72.94046
G1 X241.11 Y145.34 E72.96455
G1 X241.84 Y145.37 E72.98890
G1 X242.37 Y145.38 E73.00649
G1 X242.50 Y145.38 E73.01095
G1 X241.51 Y145.49 E73.04400
G1 X240.66 Y145.70 E73.07338
G1 X239.87 Y146.02 E73.10167
G1 X239.17 Y146.46 E73.12917
G1 X238.56 Y147.01 E73.15634
G1 X238.05 Y147.65 E73.18361
G1 X237.65 Y148.39 E73.21151
G1 X237.35 Y149.20 E73.24041
G1 X237.15 Y150.09 E73.27072
G1 X237.01 Y151.48 E73.31709
G1 X236.98 Y152.85 E73.36257
G1 X236.97 Y154.19 E73.40744
G1 X236.97 Y156.89 E73.49714
G1 X236.97 Y160.41 E73.61412
G1 X236.84 Y160.41 E73.61854
G1 X236.10 Y160.41 E73.64302
G1 X235.43 Y160.50 E73.66549
G1 X234.84 Y160.81 E73.68784
G1 X234.48 Y161.39 E73.71036
G1 X234.38 Y162.06 E73.73275
G1 X234.37 Y163.11 E73.76785
G1 X234.37 Y164.14 E73.80191
G1 X234.38 Y165.20 E73.83717
G1 X234.49 Y165.86 E73.85942
G1 X234.85 Y166.43 E73.88198
G1 X235.46 Y166.75 E73.90487
G1 X236.57 Y166.83 E73.94198
G1 X236.97 Y166.83 E73.95512
G1 X236.97 Y168.37 E74.00638
G1 X236.97 Y170.54 E74.07838
G1 X236.97 Y171.66 E74.11570
G1 X237.04 Y172.20 E74.13380
G1 X237.30 Y172.72 E74.15336
G1 X237.79 Y173.09 E74.17361
G1 X238.35 Y173.21 E74.19283
G1 X239.78 Y173.26 E74.24019
G1 X241.15 Y173.29 E74.28589
G1 X242.58 Y173.29 E74.33336
G1 X243.18 Y173.18 E74.35367
G1 X243.68 Y172.79 E74.37471
G1 X243.94 Y172.24 E74.39499
G1 X244.00 Y171.69 E74.41369
G1 X244.00 Y170.50 E74.45308
G1 X244.00 Y169.36 E74.49112
G1 X244.00 Y167.06 E74.56752
G1 X244.00 Y166.82 E74.57547
G1 X247.36 Y166.82 E74.68729
G1 X248.20 Y166.74 E74.71518
G1 X248.90 Y166.37 E74.74166
G1 X249.27 Y165.65 E74.76853
G1 X249.34 Y164.42 E74.80967
G1 X249.34 Y162.43 E74.87586
G1 X249.26 Y161.57 E74.90452
G1 X248.88 Y160.85 E74.93150
G1 X248.15 Y160.49 E74.95857
G1 X247.29 Y160.41 E74.98751
G1 X244.00 Y160.41 E75.09687
G1 X244.00 Y158.25 E75.16862
G1 X244.00 Y156.91 E75.21325
G1 X244.00 Y155.57 E75.25779
G1 X244.01 Y154.25 E75.30186
G1 X244.06 Y152.95 E75.34516
G1 X244.15 Y152.47 E75.36145
G1 X244.29 Y152.27 E75.36945
G1 X244.51 Y152.16 E75.37756
G1 X244.99 Y152.14 E75.39367
G1 X246.24 Y152.37 E75.43598
G1 X247.67 Y152.72 E75.48497
G1 X248.35 Y152.64 E75.50764
G1 X248.85 Y152.16 E75.53064
G1 X249.34 Y150.82 E75.57785
G1 X249.79 Y149.39 E75.62788
G1 X250.12 Y148.18 E75.66971
G1 X250.06 Y147.58 E75.68955
G1 X249.75 Y147.06 E75.70989
G1 X249.24 Y146.73 E75.72985
G1 X248.28 Y146.37 E75.76396
G1 X247.36 Y146.05 E75.79632
G1 X246.43 Y145.78 E75.82864
G1 X245.48 Y145.57 E75.86101
G1 X244.51 Y145.43 E75.89351
G1 X243.53 Y145.36 E75.92628
G1 X242.99 Y145.37 E75.94411
G1 X243.99 Y145.30 E75.97716
G1 X244.81 Y145.19 E76.00488
G1 X245.47 Y145.06 E76.02730
G1 X246.19 Y144.88 E76.05186
G1 X246.72 Y144.71 E76.07036
G1 X247.25 Y144.52 E76.08901
G1 X247.75 Y144.31 E76.10707
G1 X248.40 Y144.01 E76.13105
G1 X248.88 Y143.75 E76.14904
G1 X249.42 Y143.44 E76.16980
G1 X249.96 Y143.06 E76.19173
G1 X250.40 Y142.67 E76.21110
G1 X250.72 Y142.26 E76.22852
G1 X250.87 Y141.96 E76.23956
G1 X250.96 Y141.70 E76.24886
G1 X251.02 Y141.43 E76.25798
G1 X251.06 Y141.19 E76.26629
G1 X251.06 Y140.89 E76.27621
G1 X250.96 Y140.33 E76.29509
G1 X250.74 Y139.85 E76.31259
G1 X250.55 Y139.57 E76.32391
G1 X250.36 Y139.35 E76.33354
G1 X250.16 Y139.18 E76.34221
G1 X249.89 Y138.99 E76.35325
G1 X249.40 Y138.78 E76.37112
G1 X248.89 Y138.68 E76.38809
G1 X248.59 Y138.68 E76.39804
G1 X248.28 Y138.71 E76.40841
G1 X247.99 Y138.78 E76.41851
G1 X247.51 Y139.00 E76.43599
G1 X247.05 Y139.26 E76.45349
G1 X246.18 Y139.69 E76.48589
G1 X245.61 Y139.93 E76.50643
G1 X244.97 Y140.14 E76.52876
G1 X244.48 Y140.28 E76.54585
G1 X243.97 Y140.40 E76.56325
G1 X243.49 Y140.49 E76.57944
G1 X242.83 Y140.56 E76.60153
G1 X242.35 Y140.58 E76.61760
G1 X241.85 Y140.57 E76.63410
G1 X240.94 Y140.48 E76.66462
G1 X240.34 Y140.37 E76.68495
G1 X239.76 Y140.22 E76.70491
G1 X238.69 Y139.83 E76.74277
G1 X238.07 Y139.57 E76.76498
G1 X237.60 Y139.35 E76.78220
G1 X236.74 Y138.89 E76.81478
G1 X236.29 Y138.62 E76.83205
G1 X235.85 Y138.35 E76.84915
G1 X235.28 Y137.98 E76.87187
G1 X234.84 Y137.68 E76.88964
G1 X234.42 Y137.38 E76.90672
G1 X234.00 Y137.08 E76.92412
G1 X233.58 Y136.78 E76.94108
G1 X233.17 Y136.47 E76.95831
G1 X232.75 Y136.16 E76.97544
G1 X232.34 Y135.85 E76.99258
G1 X231.93 Y135.53 E77.00980
G1 X230.29 Y134.27 E77.07873
G1 X229.88 Y133.95 E77.09598
G1 X229.47 Y133.63 E77.11337
G1 X229.04 Y133.32 E77.13093
G1 X228.62 Y133.00 E77.14862
G1 X228.18 Y132.68 E77.16649
G1 X227.74 Y132.37 E77.18451
G1 X227.30 Y132.05 E77.20258
G1 X226.86 Y131.75 E77.22043
G1 X226.41 Y131.45 E77.23827
G1 X225.97 Y131.15 E77.25607
G1 X225.52 Y130.86 E77.27394
G1 X225.05 Y130.58 E77.29199
G1 X224.58 Y130.30 E77.31024
G1 X224.13 Y130.05 E77.32745
G1 X223.66 Y129.80 E77.34492
G1 X223.18 Y129.56 E77.36281
G1 X222.69 Y129.33 E77.38089
G1 X222.03 Y129.05 E77.40457
G1 X221.53 Y128.85 E77.42264
G1 X221.03 Y128.67 E77.44018
G1 X220.35 Y128.46 E77.46396
G1 X219.83 Y128.32 E77.48206
G1 X219.11 Y128.16 E77.50645
G1 X218.56 Y128.07 E77.52492
G1 X217.82 Y127.98 E77.54980
G1 X217.29 Y127.95 E77.56738
G1 X216.77 Y127.93 E77.58485
G1 X216.47 Y127.92 E77.59486
G1 X215.75 Y127.94 E77.61875
G1 X215.22 Y127.98 E77.63652
G1 X214.51 Y128.06 E77.66015
G1 X213.99 Y128.14 E77.67772
G1 X213.30 Y128.28 E77.70118
G1 X212.59 Y128.46 E77.72543
G1 X212.02 Y128.64 E77.74517
G1 X211.49 Y128.82 E77.76397
G1 X210.98 Y129.02 E77.78200
G1 X210.50 Y129.22 E77.79927
G1 X209.99 Y129.45 E77.81806
G1 X209.51 Y129.69 E77.83588
G1 X209.04 Y129.93 E77.85357
G1 X208.58 Y130.18 E77.87089
G1 X208.11 Y130.44 E77.88885
G1 X207.65 Y130.71 E77.90642
G1 X207.21 Y130.98 E77.92374
G1 X206.78 Y131.26 E77.94075
G1 X206.18 Y131.66 E77.96462
G1 X205.76 Y131.95 E77.98162
G1 X205.33 Y132.25 E77.99897
G1 X204.91 Y132.55 E78.01614
G1 X204.50 Y132.85 E78.03301
G1 X204.08 Y133.17 E78.05071
G1 X203.51 Y133.60 E78.07447
G1 X203.09 Y133.92 E78.09194
G1 X202.69 Y134.22 E78.10883
G1 X201.75 Y134.95 E78.14840
G1 X201.58 Y135.08 E78.15548
G1 X200.97 Y135.55 E78.18092
G1 X200.56 Y135.87 E78.19836
G1 X199.99 Y136.30 E78.22205
G1 X199.17 Y136.91 E78.25580
G1 X198.36 Y137.48 E78.28879
G1 X197.95 Y137.76 E78.30549
G1 X197.52 Y138.05 E78.32258
G1 X197.09 Y138.32 E78.33964
G1 X196.52 Y138.68 E78.36184
G1 X195.62 Y139.18 E78.39628
G1 X194.73 Y139.62 E78.42921
G1 X193.81 Y139.99 E78.46228
G1 X192.72 Y140.33 E78.50023
G1 X192.10 Y140.46 E78.52143
G1 X191.45 Y140.55 E78.54302
G1 X190.82 Y140.58 E78.56407
G1 X190.17 Y140.56 E78.58580
G1 X189.50 Y140.49 E78.60817
G1 X189.05 Y140.41 E78.62316
G1 X188.41 Y140.26 E78.64516
G1 X187.47 Y139.96 E78.67807
G1 X186.57 Y139.60 E78.71018
G1 X185.95 Y139.29 E78.73335
G1 X185.08 Y138.81 E78.76641
G1 X184.65 Y138.55 E78.78317
G1 X184.20 Y138.28 E78.80051
G1 X183.78 Y138.00 E78.81736
G1 X183.36 Y137.73 E78.83402
G1 X182.37 Y137.04 E78.87408
G1 X181.96 Y136.74 E78.89097
G1 X181.53 Y136.43 E78.90841
G1 X181.13 Y136.13 E78.92516
G1 X179.79 Y135.10 E78.98152
G1 X178.31 Y133.95 E79.04388
G1 X177.71 Y133.49 E79.06904
G1 X177.30 Y133.18 E79.08611
G1 X176.88 Y132.87 E79.10337
G1 X176.45 Y132.55 E79.12114
G1 X175.88 Y132.14 E79.14468
G1 X175.44 Y131.84 E79.16232
G1 X174.83 Y131.43 E79.18657
G1 X174.40 Y131.15 E79.20374
G1 X173.96 Y130.87 E79.22116
G1 X173.35 Y130.50 E79.24474
G1 X172.91 Y130.24 E79.26193
G1 X172.27 Y129.89 E79.28595
G1 X171.81 Y129.65 E79.30339
G1 X171.31 Y129.41 E79.32159
G1 X170.64 Y129.12 E79.34599
G1 X170.15 Y128.92 E79.36384
G1 X169.47 Y128.68 E79.38747
G1 X168.97 Y128.52 E79.40501
G1 X168.25 Y128.33 E79.42991
G1 X167.72 Y128.21 E79.44806
G1 X167.19 Y128.10 E79.46609
G1 X166.65 Y128.03 E79.48408
G1 X166.11 Y127.97 E79.50201
G1 X165.58 Y127.93 E79.51994
G1 X165.04 Y127.92 E79.53791
G1 X164.50 Y127.92 E79.55591
G1 X163.95 Y127.95 E79.57392
G1 X163.41 Y128.00 E79.59202
G1 X162.87 Y128.07 E79.61020
G1 X162.33 Y128.16 E79.62854
G1 X161.80 Y128.26 E79.64625
G1 X161.29 Y128.39 E79.66368
G1 X160.64 Y128.57 E79.68618
G1 X160.13 Y128.74 E79.70418
G1 X159.62 Y128.93 E79.72241
G1 X159.13 Y129.13 E79.73981
G1 X158.65 Y129.34 E79.75729
G1 X158.01 Y129.66 E79.78092
G1 X157.40 Y129.98 E79.80390
G1 X156.93 Y130.23 E79.82180
G1 X156.31 Y130.59 E79.84546
G1 X155.87 Y130.85 E79.86258
G1 X155.43 Y131.12 E79.87967
G1 X154.98 Y131.41 E79.89752
G1 X154.55 Y131.71 E79.91502
G1 X154.12 Y132.00 E79.93238
G1 X153.69 Y132.30 E79.94956
G1 X153.25 Y132.62 E79.96764
G1 X152.82 Y132.94 E79.98547
G1 X152.40 Y133.26 E80.00310
G1 X151.57 Y133.89 E80.03772
G1 X150.66 Y134.59 E80.07580
G1 X149.30 Y135.63 E80.13286
G1 X148.88 Y135.96 E80.15061
G1 X148.46 Y136.28 E80.16815
G1 X148.04 Y136.59 E80.18571
G1 X147.61 Y136.91 E80.20344
G1 X147.20 Y137.20 E80.22010
G1 X146.77 Y137.50 E80.23739
G1 X145.95 Y138.05 E80.27024
G1 X145.52 Y138.32 E80.28729
G1 X144.66 Y138.84 E80.32082
G1 X144.04 Y139.18 E80.34412
G1 X143.44 Y139.49 E80.36650
G1 X142.98 Y139.69 E80.38331
G1 X142.32 Y139.96 E80.40723
G1 X141.22 Y140.31 E80.44551
G1 X140.60 Y140.44 E80.46668
G1 X140.10 Y140.52 E80.48347
G1 X139.62 Y140.56 E80.49953
G1 X139.11 Y140.58 E80.51644
G1 X138.62 Y140.56 E80.53274
G1 X138.11 Y140.52 E80.54957
G1 X137.15 Y140.34 E80.58225
G1 X136.64 Y140.21 E80.59969
G1 X136.16 Y140.06 E80.61650
G1 X135.26 Y139.72 E80.64830
G1 X134.72 Y139.47 E80.66833
G1 X134.26 Y139.22 E80.68563
G1 X133.82 Y138.98 E80.70229
G1 X132.96 Y138.47 E80.73566
G1 X132.40 Y138.12 E80.75772
G1 X131.53 Y137.54 E80.79230
G1 X131.11 Y137.25 E80.80920
G1 X130.70 Y136.95 E80.82601
G1 X130.29 Y136.65 E80.84293
G1 X129.48 Y136.05 E80.87656
G1 X129.07 Y135.73 E80.89388
G1 X127.84 Y134.79 E80.94516
G1 X127.28 Y134.36 E80.96889
G1 X126.86 Y134.03 E80.98654
G1 X126.28 Y133.59 E81.01082
G1 X125.87 Y133.28 E81.02782
G1 X125.46 Y132.97 E81.04503
G1 X125.04 Y132.67 E81.06233
G1 X124.31 Y132.15 E81.09197
G1 X123.81 Y132.41 E81.11088
G1 X123.81 Y131.79 E81.13120
G1 X123.10 Y131.32 E81.15938
G1 X122.39 Y130.86 E81.18762
G1 X121.61 Y130.38 E81.21804
G1 X121.13 Y130.11 E81.23627
G1 X120.29 Y129.66 E81.26811
G1 X119.55 Y129.31 E81.29538
G1 X118.75 Y128.98 E81.32416
G1 X117.89 Y128.67 E81.35454
G1 X117.37 Y128.51 E81.37270
G1 X116.51 Y128.28 E81.40217
G1 X115.63 Y128.10 E81.43221
G1 X114.73 Y127.98 E81.46218
G1 X113.84 Y127.92 E81.49195
G1 X113.32 Y127.91 E81.50915
G1 X112.42 Y127.94 E81.53920
G1 X111.87 Y128.00 E81.55774
G1 X110.96 Y128.12 E81.58828
G1 X110.40 Y128.24 E81.60708
G1 X109.88 Y128.36 E81.62484
G1 X108.98 Y128.61 E81.65610
G1 X108.47 Y128.78 E81.67406
G1 X107.68 Y129.08 E81.70203
G1 X107.15 Y129.31 E81.72112
G1 X106.35 Y129.70 E81.75077
G1 X105.59 Y130.10 E81.77955
G1 X105.12 Y130.37 E81.79744
G1 X104.67 Y130.64 E81.81496
G1 X104.22 Y130.91 E81.83215
G1 X103.79 Y131.18 E81.84916
G1 X103.32 Y131.49 E81.86790
G1 X102.56 Y132.00 E81.89856
G1 X102.11 Y132.32 E81.91667
G1 X101.15 Y133.02 E81.95635
G1 X101.15 Y133.67 E81.97810
G1 X100.62 Y133.41 E81.99749
G1 X99.62 Y134.18 E82.03938
G1 X98.27 Y135.24 E82.09649
G1 X97.84 Y135.56 E82.11446
G1 X97.12 Y136.11 E82.14448
G1 X96.69 Y136.44 E82.16242
G1 X95.97 Y136.96 E82.19203
G1 X95.53 Y137.28 E82.21011
G1 X94.79 Y137.78 E82.23996
G1 X94.33 Y138.08 E82.25812
G1 X93.91 Y138.35 E82.27482
G1 X93.06 Y138.86 E82.30761
G1 X92.26 Y139.31 E82.33819
G1 X91.35 Y139.74 E82.37181
G1 X90.67 Y140.00 E82.39612
G1 X89.92 Y140.23 E82.42191
G1 X89.10 Y140.43 E82.45014
G1 X88.32 Y140.54 E82.47638
G1 X87.55 Y140.58 E82.50202
G1 X87.11 Y140.57 E82.51676
G1 X86.36 Y140.49 E82.54170
G1 X85.56 Y140.34 E82.56877
G1 X84.77 Y140.12 E82.59595
G1 X84.04 Y139.86 E82.62181
G1 X83.24 Y139.49 E82.65116
G1 X82.75 Y139.25 E82.66931
G1 X81.99 Y138.83 E82.69821
G1 X81.53 Y138.57 E82.71567
G1 X80.83 Y138.13 E82.74318
G1 X80.37 Y137.83 E82.76140
G1 X79.78 Y137.42 E82.78524
G1 X79.14 Y136.96 E82.81145
G1 X78.50 Y136.49 E82.83796
G1 X77.88 Y136.02 E82.86394
G1 X77.25 Y135.54 E82.89021
G1 X76.13 Y134.67 E82.93742
G1 X75.56 Y134.23 E82.96144
G1 X74.98 Y133.78 E82.98575
G1 X74.39 Y133.34 E83.01042
G1 X73.78 Y132.89 E83.03533
G1 X73.37 Y132.58 E83.05256
G1 X72.65 Y132.08 E83.08171
G1 X72.21 Y131.77 E83.09947
G1 X71.46 Y131.27 E83.12948
G1 X71.01 Y130.98 E83.14738
G1 X70.38 Y130.59 E83.17209
G1 X69.61 Y130.14 E83.20170
G1 X69.14 Y129.88 E83.21960
G1 X68.41 Y129.52 E83.24650
G1 X67.57 Y129.14 E83.27713
G1 X67.06 Y128.94 E83.29551
G1 X66.22 Y128.63 E83.32538
G1 X65.34 Y128.37 E83.35570
G1 X64.46 Y128.17 E83.38578
G1 X63.57 Y128.03 E83.41577
G1 X62.67 Y127.94 E83.44573
G1 X61.77 Y127.92 E83.47568
G1 X60.87 Y127.95 E83.50580
G1 X59.96 Y128.04 E83.53615
G1 X59.06 Y128.19 E83.56665
G1 X58.54 Y128.30 E83.58427
G1 X57.69 Y128.52 E83.61346
G1 X57.16 Y128.69 E83.63186
G1 X56.34 Y128.98 E83.66071
G1 X55.55 Y129.32 E83.68954
G1 X55.02 Y129.57 E83.70888
G1 X54.21 Y129.99 E83.73920
G1 X53.75 Y130.25 E83.75683
G1 X53.30 Y130.51 E83.77434
G1 X52.85 Y130.78 E83.79162
G1 X52.05 Y131.29 E83.82306
G1 X51.59 Y131.59 E83.84155
G1 X50.84 Y132.11 E83.87168
G1 X50.41 Y132.42 E83.88942
G1 X49.70 Y132.94 E83.91847
G1 F3600 E82.51847
G0 F12000 X54.28 Y145.45
G1 F3600 E83.91847
G1 F2700 X53.70 Y145.93 E83.94348
G1 X53.36 Y146.58 E83.96791
G1 X47.31 Y164.75 E84.60490
G1 X47.16 Y165.50 E84.63045
G1 X47.37 Y166.25 E84.65630
G1 X48.00 Y166.70 E84.68211
G1 X48.77 Y166.82 E84.70784
G1 X52.02 Y166.83 E84.81620
G1 X52.60 Y166.76 E84.83540
G1 X53.14 Y166.51 E84.85539
G1 X53.55 Y166.07 E84.87536
G1 X53.80 Y165.54 E84.89472
G1 X54.34 Y163.91 E84.95205
G1 X54.87 Y162.31 E85.00817
G1 X56.24 Y158.23 E85.15112
G1 X59.78 Y164.87 E85.40105
G1 X60.57 Y166.39 E85.45817
G1 X61.20 Y167.11 E85.49008
G1 X62.19 Y167.34 E85.52388
G1 X63.18 Y167.08 E85.55772
G1 X63.80 Y166.37 E85.58939
G1 X65.33 Y163.45 E85.69870
G1 X67.58 Y159.18 E85.85928
G1 X68.08 Y158.25 E85.89451
G1 X69.21 Y161.60 E86.01214
G1 X69.64 Y162.89 E86.05737
G1 X70.07 Y164.17 E86.10235
G1 X70.50 Y165.50 E86.14870
G1 X70.75 Y166.04 E86.16871
G1 X71.17 Y166.50 E86.18932
G1 X71.73 Y166.76 E86.20993
G1 X72.32 Y166.82 E86.22977
G1 X75.44 Y166.82 E86.33354
G1 X76.22 Y166.69 E86.35981
G1 X76.86 Y166.23 E86.38611
G1 X77.08 Y165.47 E86.41247
G1 X76.94 Y164.69 E86.43864
G1 X70.92 Y146.62 E87.07193
G1 X70.53 Y145.85 E87.10092
G1 X70.07 Y145.50 E87.12024
G1 X69.50 Y145.35 E87.13967
G1 X68.91 Y145.38 E87.15952
G1 X68.34 Y145.60 E87.17966
G1 X67.71 Y146.34 E87.21205
G1 X66.06 Y149.39 E87.32745
G1 X62.11 Y156.70 E87.60365
G1 X57.51 Y148.12 E87.92727
G1 X56.33 Y146.02 E88.00755
G1 X55.79 Y145.52 E88.03211
G1 X55.02 Y145.29 E88.05856
G1 X54.28 Y145.45 E88.08375
G1 F3600 E86.68375
G0 F12000 X79.79 Y147.67
G1 F3600 E88.08375
G1 F2700 X79.78 Y154.17 E88.29974
G1 X79.78 Y164.90 E88.65659
G1 X79.87 Y165.69 E88.68304
G1 X80.23 Y166.37 E88.70868
G1 X80.91 Y166.73 E88.73427
G1 X81.70 Y166.82 E88.76064
G1 X83.81 Y166.82 E88.83105
G1 X85.85 Y166.75 E88.89894
G1 X86.55 Y166.39 E88.92512
G1 X86.91 Y165.71 E88.95078
G1 X86.98 Y164.90 E88.97767
G1 X86.99 Y162.45 E89.05913
G1 X86.98 Y147.91 E89.54293
G1 X86.92 Y147.01 E89.57298
G1 X86.56 Y146.26 E89.60044
G1 X85.82 Y145.90 E89.62780
G1 X84.93 Y145.84 E89.65745
G1 X83.29 Y145.83 E89.71223
G1 X81.63 Y145.84 E89.76737
G1 X80.88 Y145.92 E89.79241
G1 X80.23 Y146.28 E89.81704
G1 X79.87 Y146.93 E89.84173
G1 X79.79 Y147.67 E89.86673
G1 F3600 E88.46673
G0 F12000 X99.11 Y140.78
G1 F3600 E89.86673
G1 F2700 X99.80 Y140.28 E89.89509
G1 X100.44 Y139.80 E89.92160
G1 X101.29 Y139.16 E89.95714
G1 X101.29 Y138.49 E89.97926
G1 X101.82 Y138.75 E89.99867
G1 X102.56 Y138.18 E90.02980
G1 X102.98 Y137.85 E90.04738
G1 X103.67 Y137.32 E90.07647
G1 X103.75 Y137.26 E90.07977
G1 X104.00 Y137.38 E90.08898
G1 X104.30 Y137.59 E90.10108
G1 X104.51 Y137.76 E90.11001
G1 X104.69 Y137.97 E90.11924
G1 X104.84 Y138.24 E90.12963
G1 X104.94 Y138.50 E90.13896
G1 X105.00 Y138.75 E90.14714
G1 X105.01 Y139.05 E90.15716
G1 X104.98 Y139.38 E90.16825
G1 X104.92 Y139.66 E90.17776
G1 X104.81 Y139.90 E90.18662
G1 X104.65 Y140.15 E90.19647
G1 X104.52 Y140.30 E90.20316
G1 X104.32 Y140.46 E90.21165
G1 X104.05 Y140.61 E90.22178
G1 X103.78 Y140.72 E90.23166
G1 X103.51 Y140.79 E90.24079
G1 X102.52 Y140.95 E90.27423
G1 X101.29 Y141.10 E90.31535
G1 X101.29 Y141.01 E90.31828
G1 X100.23 Y140.93 E90.35358
G1 X99.41 Y140.84 E90.38120
G1 X99.11 Y140.78 E90.39115
G1 F3600 E88.99115
G0 F12000 X101.26 Y154.87
G1 F3600 E90.39115
G1 F2700 X102.17 Y155.09 E90.42244
G1 X102.63 Y155.29 E90.43907
G1 X103.04 Y155.56 E90.45535
G1 X103.37 Y155.90 E90.47127
G1 X103.65 Y156.31 E90.48752
G1 X103.86 Y156.78 E90.50460
G1 X103.98 Y157.30 E90.52264
G1 X104.03 Y157.88 E90.54188
G1 X103.97 Y158.46 E90.56131
G1 X103.84 Y158.98 E90.57917
G1 X103.63 Y159.45 E90.59637
G1 X103.35 Y159.85 E90.61251
G1 X103.01 Y160.20 E90.62871
G1 X102.61 Y160.47 E90.64463
G1 X102.16 Y160.67 E90.66099
G1 X101.25 Y160.88 E90.69234
G1 X100.49 Y160.73 E90.71789
G1 X100.25 Y160.65 E90.72649
G1 X100.05 Y160.57 E90.73368
G1 X99.80 Y160.45 E90.74277
G1 X99.40 Y160.17 E90.75916
G1 X99.21 Y159.99 E90.76763
G1 X98.89 Y159.61 E90.78426
G1 X98.78 Y159.42 E90.79165
G1 X98.55 Y158.93 E90.80964
G1 X98.41 Y158.39 E90.82819
G1 X98.38 Y158.14 E90.83661
G1 X98.37 Y157.85 E90.84620
G1 X98.42 Y157.27 E90.86563
G1 X98.56 Y156.74 E90.88368
G1 X98.78 Y156.27 E90.90106
G1 X99.06 Y155.88 E90.91709
G1 X99.21 Y155.71 E90.92469
G1 X99.61 Y155.39 E90.94168
G1 X100.03 Y155.16 E90.95735
G1 X100.53 Y155.00 E90.97477
G1 X101.26 Y154.87 E90.99954
G1 F3600 E89.59954
G0 F12000 X120.95 Y157.54
G1 F3600 E90.99954
G1 F2700 X121.04 Y157.02 E91.01731
G1 X121.21 Y156.52 E91.03474
G1 X121.45 Y156.10 E91.05094
G1 X121.77 Y155.72 E91.06748
G1 X121.95 Y155.55 E91.07565
G1 X122.33 Y155.29 E91.09088
G1 X122.80 Y155.09 E91.10802
G1 X123.78 Y154.87 E91.14149
G1 X124.70 Y155.06 E91.17276
G1 X125.17 Y155.26 E91.18955
G1 X125.57 Y155.53 E91.20555
G1 X125.91 Y155.86 E91.22148
G1 X126.20 Y156.27 E91.23802
G1 X126.41 Y156.74 E91.25526
G1 X126.54 Y157.27 E91.27343
G1 X126.59 Y157.87 E91.29321
G1 X126.54 Y158.45 E91.31283
G1 X126.41 Y158.98 E91.33091
G1 X126.19 Y159.46 E91.34822
G1 X125.91 Y159.86 E91.36475
G1 X125.56 Y160.21 E91.38102
G1 X125.16 Y160.48 E91.39727
G1 X124.69 Y160.68 E91.41397
G1 X123.77 Y160.88 E91.44547
G1 X123.02 Y160.72 E91.47091
G1 X122.80 Y160.65 E91.47877
G1 X122.36 Y160.44 E91.49493
G1 X121.95 Y160.15 E91.51148
G1 X121.78 Y160.00 E91.51927
G1 X121.60 Y159.79 E91.52830
G1 X121.33 Y159.40 E91.54426
G1 X121.11 Y158.92 E91.56166
G1 X120.97 Y158.37 E91.58045
G1 X120.94 Y157.85 E91.59779
G1 X120.95 Y157.54 E91.60801
G1 F3600 E90.20801
G0 F12000 X121.90 Y140.86
G1 F3600 E91.60801
G1 F2700 X121.52 Y140.78 E91.62097
G1 X121.19 Y140.67 E91.63260
G1 X120.89 Y140.52 E91.64373
G1 X120.61 Y140.32 E91.65516
G1 X120.39 Y140.13 E91.66485
G1 X120.19 Y139.91 E91.67489
G1 X120.01 Y139.63 E91.68604
G1 X119.90 Y139.39 E91.69465
G1 X119.86 Y139.19 E91.70139
G1 X119.84 Y138.90 E91.71125
G1 X119.88 Y138.56 E91.72241
G1 X119.95 Y138.32 E91.73083
G1 X120.07 Y138.07 E91.74000
G1 X120.27 Y137.78 E91.75163
G1 X120.46 Y137.59 E91.76057
G1 X120.72 Y137.40 E91.77127
G1 X121.04 Y137.23 E91.78342
G1 X121.79 Y136.97 E91.80964
G1 X122.35 Y136.84 E91.82882
G1 X123.15 Y137.43 E91.86186
G1 X123.66 Y137.17 E91.88097
G1 X123.66 Y137.83 E91.90266
G1 X124.31 Y138.33 E91.93006
G1 X125.14 Y138.97 E91.96489
G1 X125.56 Y139.29 E91.98247
G1 X125.99 Y139.61 E92.00015
G1 X126.42 Y139.93 E92.01803
G1 X126.85 Y140.26 E92.03602
G1 X127.00 Y140.37 E92.04214
G1 X126.89 Y140.45 E92.04654
G1 X126.58 Y140.63 E92.05846
G1 X126.42 Y140.69 E92.06405
G1 X125.98 Y140.81 E92.07941
G1 X125.47 Y140.90 E92.09653
G1 X124.46 Y141.03 E92.13050
G1 X123.66 Y140.98 E92.15713
G1 X122.71 Y140.92 E92.18879
G1 X121.90 Y140.86 E92.21566
G1 F3600 E90.81566
G0 F12000 X137.24 Y146.90
G1 F3600 E92.21566
G1 F2700 X137.16 Y147.63 E92.24014
G1 X137.16 Y178.37 E93.26242
G1 X137.24 Y179.21 E93.29043
G1 X137.60 Y179.91 E93.31690
G1 X138.31 Y180.27 E93.34340
G1 X139.15 Y180.34 E93.37147
G1 X140.91 Y180.35 E93.42994
G1 X142.68 Y180.34 E93.48885
G1 X143.31 Y180.25 E93.51010
G1 X143.88 Y179.94 E93.53176
G1 X144.25 Y179.37 E93.55435
G1 X144.38 Y178.23 E93.59258
G1 X144.38 Y148.00 E94.59794
G1 X144.37 Y147.46 E94.61594
G1 X144.26 Y146.84 E94.63668
G1 X143.90 Y146.26 E94.65947
G1 X143.30 Y145.92 E94.68233
G1 X142.62 Y145.84 E94.70506
G1 X140.78 Y145.83 E94.76626
G1 X138.95 Y145.84 E94.82726
G1 X138.22 Y145.91 E94.85168
G1 X137.58 Y146.26 E94.87582
G1 X137.24 Y146.90 E94.89996
G1 F3600 E93.49996
G0 F12000 X148.38 Y152.06
G1 F3600 E94.89996
G1 F2700 X147.94 Y153.44 E94.94814
G1 X147.70 Y154.90 E94.99711
G1 X147.65 Y156.41 E95.04756
G1 X147.78 Y157.99 E95.10018
G1 X148.09 Y159.52 E95.15204
G1 X148.56 Y160.94 E95.20189
G1 X149.20 Y162.25 E95.25033
G1 X150.00 Y163.44 E95.29798
G1 X150.97 Y164.49 E95.34555
G1 X152.11 Y165.39 E95.39385
G1 X153.40 Y166.15 E95.44359
G1 X154.85 Y166.74 E95.49567
G1 X156.24 Y167.12 E95.54359
G1 X158.10 Y167.38 E95.60621
G1 X158.10 Y167.40 E95.60700
G1 X158.20 Y167.39 E95.61021
G1 X158.25 Y167.40 E95.61196
G1 X158.25 Y167.39 E95.61239
G1 X160.33 Y167.16 E95.68201
G1 X161.85 Y166.75 E95.73434
G1 X163.25 Y166.10 E95.78562
G1 X164.52 Y165.26 E95.83623
G1 X165.62 Y164.23 E95.88650
G1 X166.55 Y163.03 E95.93684
G1 X167.28 Y161.69 E95.98755
G1 X167.80 Y160.22 E96.03950
G1 X168.06 Y158.33 E96.10291
G1 X168.07 Y156.42 E96.16637
G1 X167.98 Y155.69 E96.19081
G1 X167.60 Y155.08 E96.21477
G1 X166.94 Y154.79 E96.23891
G1 X163.91 Y154.74 E96.33980
G1 X158.25 Y154.74 E96.52786
G1 X154.61 Y154.74 E96.64902
G1 X154.61 Y154.70 E96.65040
G1 X154.82 Y154.07 E96.67241
G1 X155.16 Y153.46 E96.69569
G1 X155.60 Y152.91 E96.71891
G1 X156.12 Y152.44 E96.74232
G1 X156.69 Y152.07 E96.76508
G1 X157.32 Y151.81 E96.78754
G1 X157.96 Y151.69 E96.80925
G1 X159.00 Y151.68 E96.84401
G1 X160.00 Y151.81 E96.87748
G1 X160.96 Y152.11 E96.91089
G1 X161.91 Y152.61 E96.94654
G1 X162.62 Y153.02 E96.97376
G1 X163.37 Y153.15 E96.99889
G1 X164.03 Y152.80 E97.02382
G1 X164.60 Y152.22 E97.05104
G1 X166.08 Y150.54 E97.12529
G1 X166.52 Y149.94 E97.15024
G1 X166.70 Y149.24 E97.17424
G1 X166.43 Y148.57 E97.19813
G1 X165.91 Y148.02 E97.22338
G1 X164.61 Y147.02 E97.27780
G1 X163.21 Y146.26 E97.33094
G1 X161.70 Y145.75 E97.38380
G1 X160.12 Y145.45 E97.43738
G1 X158.00 Y145.35 E97.50794
G1 X155.94 Y145.58 E97.57672
G1 X154.92 Y145.85 E97.61194
G1 X153.93 Y146.22 E97.64710
G1 X152.98 Y146.73 E97.68304
G1 X152.06 Y147.36 E97.72015
G1 X150.86 Y148.40 E97.77310
G1 X149.84 Y149.54 E97.82374
G1 X149.01 Y150.76 E97.87280
G1 X148.38 Y152.06 E97.92106
G1 F3600 E96.52106
G0 F12000 X155.16 Y159.44
G1 F3600 E97.92106
G1 F2700 X160.96 Y159.44 E98.11403
G1 X160.85 Y159.83 E98.12743
G1 X160.30 Y160.65 E98.16022
G1 X159.55 Y161.21 E98.19150
G1 X158.18 Y161.64 E98.23925
G1 X156.73 Y161.20 E98.28975
G1 X155.90 Y160.61 E98.32367
G1 X155.28 Y159.76 E98.35850
G1 X155.16 Y159.44 E98.36997
G1 F3600 E96.96997
G0 F12000 X178.18 Y157.76
G1 F3600 E98.36997
G1 F2700 X178.17 Y157.10 E98.39193
G1 X178.17 Y155.73 E98.43739
G1 X178.17 Y155.21 E98.45469
G1 X178.16 Y154.63 E98.47408
G1 X178.16 Y154.06 E98.49307
G1 X178.17 Y153.49 E98.51180
G1 X178.19 Y152.96 E98.52944
G1 X178.21 Y152.84 E98.53348
G1 X178.26 Y152.74 E98.53731
G1 X178.28 Y152.70 E98.53875
G1 X178.33 Y152.67 E98.54065
G1 X178.91 Y152.40 E98.56186
G1 X179.33 Y152.23 E98.57696
G1 X179.93 Y152.05 E98.59772
G1 X180.50 Y151.94 E98.61697
G1 X180.87 Y151.90 E98.62932
G1 X181.75 Y151.86 E98.65878
G1 X182.61 Y152.07 E98.68815
G1 X183.23 Y152.29 E98.71011
G1 X183.86 Y152.66 E98.73422
G1 X184.40 Y153.12 E98.75796
G1 X184.85 Y153.68 E98.78201
G1 X185.21 Y154.31 E98.80603
G1 X185.46 Y155.01 E98.83057
G1 X185.60 Y155.74 E98.85547
G1 X185.61 Y156.51 E98.88089
G1 X185.50 Y157.39 E98.91050
G1 X185.28 Y158.17 E98.93745
G1 X184.98 Y158.84 E98.96188
G1 X184.59 Y159.41 E98.98475
G1 X184.13 Y159.87 E99.00662
G1 X183.57 Y160.25 E99.02900
G1 X182.92 Y160.53 E99.05239
G1 X181.69 Y160.84 E99.09471
G1 X180.85 Y160.72 E99.12289
G1 X180.46 Y160.61 E99.13621
G1 X180.09 Y160.46 E99.14957
G1 X179.57 Y160.14 E99.16995
G1 X179.26 Y159.88 E99.18335
G1 X178.95 Y159.56 E99.19801
G1 X178.71 Y159.24 E99.21138
G1 X178.42 Y158.72 E99.23142
G1 X178.28 Y158.32 E99.24543
G1 X178.18 Y157.76 E99.26441
G1 F3600 E97.86441
G0 F12000 X194.32 Y156.40
G1 F3600 E99.26441
G1 F2700 X194.54 Y158.53 E99.33544
G1 X195.15 Y160.51 E99.40452
G1 X196.09 Y162.32 E99.47238
G1 X197.34 Y163.91 E99.53958
G1 X198.84 Y165.25 E99.60654
G1 X200.58 Y166.28 E99.67364
G1 X202.49 Y166.98 E99.74147
G1 X205.04 Y167.38 E99.82709
G1 X205.04 Y167.40 E99.82792
G1 X205.12 Y167.39 E99.83061
G1 X205.18 Y167.40 E99.83290
G1 X205.18 Y167.38 E99.83360
G1 X207.71 Y166.98 E99.91863
G1 X209.61 Y166.28 E99.98615
G1 X211.34 Y165.24 E100.05319
G1 X212.84 Y163.90 E100.12019
G1 X214.09 Y162.30 E100.18739
G1 X215.03 Y160.50 E100.25516
G1 X215.62 Y158.52 E100.32384
G1 X215.84 Y156.41 E100.39417
G1 X215.63 Y154.27 E100.46577
G1 X215.04 Y152.26 E100.53541
G1 X214.11 Y150.43 E100.60387
G1 X212.87 Y148.81 E100.67158
G1 X211.37 Y147.45 E100.73895
G1 X209.64 Y146.40 E100.80633
G1 X207.73 Y145.68 E100.87430
G1 X205.18 Y145.28 E100.95991
G1 X205.18 Y145.25 E100.96071
G1 X205.11 Y145.27 E100.96330
G1 X205.04 Y145.25 E100.96569
G1 X205.04 Y145.28 E100.96642
G1 X202.49 Y145.68 E101.05222
G1 X200.56 Y146.40 E101.12053
G1 X198.82 Y147.46 E101.18843
G1 X197.30 Y148.82 E101.25624
G1 X196.05 Y150.44 E101.32432
G1 X195.11 Y152.27 E101.39286
G1 X194.52 Y154.28 E101.46232
G1 X194.32 Y156.40 E101.53336
G1 F3600 E100.13336
G0 F12000 X200.98 Y156.10
G1 F3600 E101.53336
G1 F2700 X201.00 Y155.79 E101.54356
G1 X201.11 Y155.03 E101.56931
G1 X201.36 Y154.34 E101.59354
G1 X201.71 Y153.72 E101.61713
G1 X202.16 Y153.18 E101.64089
G1 X202.70 Y152.71 E101.66449
G1 X203.31 Y152.34 E101.68802
G1 X203.96 Y152.08 E101.71147
G1 X205.13 Y151.83 E101.75129
G1 X206.38 Y152.11 E101.79371
G1 X206.96 Y152.37 E101.81488
G1 X207.51 Y152.74 E101.83696
G1 X208.03 Y153.22 E101.86054
G1 X208.46 Y153.79 E101.88445
G1 X208.82 Y154.46 E101.90973
G1 X209.07 Y155.21 E101.93597
G1 X209.20 Y156.03 E101.96350
G1 X209.18 Y156.92 E101.99321
G1 X209.05 Y157.62 E102.01667
G1 X208.80 Y158.29 E102.04057
G1 X208.46 Y158.90 E102.06401
G1 X208.01 Y159.46 E102.08761
G1 X207.49 Y159.94 E102.11115
G1 X206.90 Y160.32 E102.13464
G1 X206.25 Y160.59 E102.15789
G1 X205.10 Y160.84 E102.19698
G1 X203.81 Y160.55 E102.24097
G1 X203.07 Y160.21 E102.26825
G1 X202.41 Y159.73 E102.29526
G1 X201.87 Y159.15 E102.32188
G1 X201.44 Y158.46 E102.34878
G1 X201.14 Y157.72 E102.37544
G1 X200.98 Y156.94 E102.40193
G1 X200.98 Y156.10 E102.42977
G1 F3600 E101.02977
G0 F12000 X219.04 Y147.60
G1 F3600 E102.42977
G1 F2700 X219.04 Y165.05 E103.01019
G1 X219.13 Y165.75 E103.03370
G1 X219.48 Y166.37 E103.05740
G1 X220.10 Y166.73 E103.08117
G1 X220.80 Y166.82 E103.10467
G1 X222.33 Y166.82 E103.15542
G1 X223.28 Y166.62 E103.18789
G1 X223.70 Y166.18 E103.20796
G1 X224.25 Y164.81 E103.25710
G1 X224.77 Y165.38 E103.28266
G1 X226.13 Y166.39 E103.33906
G1 X227.68 Y167.03 E103.39487
G1 X229.40 Y167.29 E103.45266
G1 X231.23 Y167.22 E103.51365
G1 X232.17 Y167.00 E103.54563
G1 X233.09 Y166.63 E103.57844
G1 X233.70 Y166.22 E103.60326
G1 X234.10 Y165.62 E103.62717
G1 X234.11 Y164.90 E103.65106
G1 X233.84 Y164.24 E103.67485
G1 X233.02 Y162.79 E103.73008
G1 X232.20 Y161.36 E103.78504
G1 X231.87 Y160.89 E103.80397
G1 X231.38 Y160.53 E103.82426
G1 X230.75 Y160.41 E103.84543
G1 X230.07 Y160.56 E103.86871
G1 X229.45 Y160.73 E103.88985
G1 X228.83 Y160.78 E103.91050
G1 X228.22 Y160.70 E103.93093
G1 X227.61 Y160.47 E103.95267
G1 X226.95 Y160.08 E103.97815
G1 X226.49 Y159.63 E103.99981
G1 X226.21 Y159.06 E104.02062
G1 X226.12 Y158.24 E104.04826
G1 X226.16 Y156.59 E104.10319
G1 X226.17 Y154.90 E104.15940
G1 X226.18 Y153.21 E104.21551
G1 X226.16 Y149.84 E104.32760
G1 X226.15 Y148.14 E104.38414
G1 X226.09 Y147.09 E104.41900
G1 X225.71 Y146.26 E104.44934
G1 X224.87 Y145.90 E104.47986
G1 X223.81 Y145.84 E104.51511
G1 X222.31 Y145.83 E104.56506
G1 X220.79 Y145.84 E104.61569
G1 X220.09 Y145.93 E104.63925
G1 X219.47 Y146.28 E104.66289
G1 X219.12 Y146.90 E104.68652
G1 X219.04 Y147.60 E104.71017
G1 F3600 E103.31017
G0 F12000 X87.27 Y172.28
G1 F3600 E104.71017
G1 F2700 X87.03 Y171.53 E104.73632
G1 X86.66 Y170.86 E104.76191
G1 X86.16 Y170.27 E104.78730
G1 X85.56 Y169.80 E104.81281
G1 X84.87 Y169.44 E104.83859
G1 X84.11 Y169.22 E104.86493
G1 X83.29 Y169.15 E104.89226
G1 X82.49 Y169.23 E104.91921
G1 X81.74 Y169.47 E104.94539
G1 X81.06 Y169.84 E104.97104
G1 X80.48 Y170.34 E104.99646
G1 X80.00 Y170.94 E105.02193
G1 X79.65 Y171.62 E105.04770
G1 X79.43 Y172.39 E105.07413
G1 X79.36 Y173.21 E105.10137
G1 X79.44 Y174.01 E105.12820
G1 X79.68 Y174.75 E105.15423
G1 X80.04 Y175.43 E105.17970
G1 X80.52 Y176.01 E105.20493
G1 X81.11 Y176.49 E105.23015
G1 X81.78 Y176.85 E105.25557
G1 X82.53 Y177.08 E105.28150
G1 X83.33 Y177.15 E105.30823
G1 X84.15 Y177.07 E105.33564
G1 X84.91 Y176.83 E105.36222
G1 X85.60 Y176.46 E105.38828
G1 X86.20 Y175.96 E105.41412
G1 X86.69 Y175.36 E105.43997
G1 X87.06 Y174.67 E105.46600
G1 X87.28 Y173.90 E105.49255
G1 X87.36 Y173.08 E105.51990
G1 X87.27 Y172.28 E105.54683
G0 F12000 X86.88 Y172.36
;TYPE:WALL-OUTER
G1 F2700 X86.66 Y171.69 E105.57030
G1 X86.33 Y171.09 E105.59326
G1 X85.88 Y170.56 E105.61603
G1 X85.34 Y170.14 E105.63891
G1 X84.72 Y169.82 E105.66214
G1 X84.04 Y169.62 E105.68592
G1 X83.30 Y169.55 E105.71064
G1 X82.57 Y169.63 E105.73499
G1 X81.89 Y169.84 E105.75849
G1 X81.29 Y170.17 E105.78149
G1 X80.77 Y170.62 E105.80424
G1 X80.34 Y171.16 E105.82713
G1 X80.02 Y171.77 E105.85030
G1 X79.82 Y172.46 E105.87411
G1 X79.76 Y173.20 E105.89878
G1 X79.84 Y173.93 E105.92302
G1 X80.05 Y174.60 E105.94644
G1 X80.37 Y175.20 E105.96931
G1 X80.81 Y175.73 E105.99194
G1 X81.33 Y176.16 E106.01456
G1 X81.94 Y176.48 E106.03737
G1 X82.61 Y176.68 E106.06065
G1 X83.33 Y176.75 E106.08477
G1 X84.07 Y176.68 E106.10951
G1 X84.76 Y176.46 E106.13344
G1 X85.38 Y176.12 E106.15693
G1 X85.91 Y175.68 E106.18014
G1 X86.36 Y175.14 E106.20338
G1 X86.68 Y174.51 E106.22679
G1 X86.89 Y173.82 E106.25070
G1 X86.96 Y173.09 E106.27541
G1 X86.88 Y172.36 E106.29966
G1 F3600 E104.89966
G0 F12000 X85.75 Y166.36
G1 F3600 E106.29966
G1 F2700 X86.26 Y166.10 E106.31861
G1 X86.52 Y165.59 E106.33746
G1 X86.58 Y164.88 E106.36115
G1 X86.58 Y147.92 E106.92528
G1 X86.53 Y147.11 E106.95232
G1 X86.26 Y146.56 E106.97264
G1 X85.72 Y146.29 E106.99280
G1 X84.92 Y146.24 E107.01941
G1 X81.65 Y146.24 E107.12807
G1 X81.00 Y146.31 E107.14977
G1 X80.52 Y146.57 E107.16794
G1 X80.26 Y147.05 E107.18610
G1 X80.19 Y147.69 E107.20773
G1 X80.19 Y164.87 E107.77907
G1 X80.26 Y165.57 E107.80225
G1 X80.53 Y166.07 E107.82132
G1 X81.03 Y166.34 E107.84035
G1 X81.72 Y166.42 E107.86333
G1 X83.81 Y166.42 E107.93278
G1 X85.75 Y166.36 E107.99744
G1 F3600 E106.59744
G0 F12000 X76.67 Y165.44
G1 F3600 E107.99744
G1 F2700 X76.55 Y164.79 E108.01953
G1 X70.56 Y146.78 E108.65091
G1 X70.22 Y146.11 E108.67584
G1 X69.89 Y145.86 E108.68941
G1 X69.46 Y145.75 E108.70421
G1 X68.99 Y145.77 E108.71982
G1 X68.58 Y145.94 E108.73449
G1 X68.04 Y146.56 E108.76217
G1 X62.37 Y157.07 E109.15911
G1 X62.10 Y157.53 E109.17673
G1 X57.16 Y148.32 E109.52443
G1 X56.02 Y146.27 E109.60241
G1 X55.59 Y145.88 E109.62179
G1 X55.01 Y145.71 E109.64182
G1 X54.46 Y145.82 E109.66034
G1 X54.02 Y146.19 E109.67940
G1 X53.73 Y146.74 E109.70008
G1 X47.70 Y164.85 E110.33514
G1 X47.58 Y165.49 E110.35672
G1 X47.72 Y166.01 E110.37471
G1 X48.16 Y166.32 E110.39258
G1 X48.80 Y166.42 E110.41417
G1 X52.00 Y166.43 E110.52080
G1 X52.49 Y166.37 E110.53706
G1 X52.90 Y166.18 E110.55227
G1 X53.22 Y165.85 E110.56754
G1 X53.43 Y165.40 E110.58397
G1 X56.11 Y157.37 E110.86538
G1 X56.17 Y157.24 E110.87027
G1 X60.13 Y164.68 E111.15076
G1 X60.90 Y166.16 E111.20627
G1 X61.42 Y166.75 E111.23228
G1 X62.19 Y166.92 E111.25858
G1 X62.96 Y166.73 E111.28505
G1 X63.47 Y166.14 E111.31098
G1 X67.98 Y157.58 E111.63273
G1 X68.16 Y157.25 E111.64522
G1 X70.02 Y162.76 E111.83857
G1 X70.45 Y164.05 E111.88378
G1 X70.87 Y165.35 E111.92933
G1 X71.08 Y165.82 E111.94638
G1 X71.41 Y166.17 E111.96226
G1 X71.84 Y166.37 E111.97805
G1 X72.34 Y166.43 E111.99495
G1 X75.41 Y166.42 E112.09692
G1 X76.06 Y166.31 E112.11895
G1 X76.51 Y165.98 E112.13754
G1 X76.67 Y165.44 E112.15620
G1 F3600 E110.75620
G0 F12000 X92.59 Y160.56
G1 F3600 E112.15620
G1 F2700 X92.76 Y161.09 E112.17455
G1 X92.94 Y161.55 E112.19104
G1 X93.36 Y162.38 E112.22195
G1 X93.65 Y162.86 E112.24074
G1 X94.21 Y163.62 E112.27202
G1 X94.58 Y164.05 E112.29094
G1 X95.25 Y164.72 E112.32231
G1 X95.68 Y165.08 E112.34110
G1 X96.50 Y165.66 E112.37443
G1 X97.30 Y166.11 E112.40523
G1 X97.81 Y166.34 E112.42370
G1 X98.68 Y166.62 E112.45398
G1 X99.20 Y166.74 E112.47184
G1 X99.73 Y166.81 E112.48963
G1 X100.29 Y166.84 E112.50829
G1 X100.89 Y166.87 E112.52835
G1 X100.89 Y161.22 E112.71611
G1 X100.39 Y161.12 E112.73315
G1 X100.12 Y161.03 E112.74258
G1 X99.88 Y160.94 E112.75116
G1 X99.59 Y160.79 E112.76190
G1 X99.14 Y160.48 E112.78013
G1 X98.92 Y160.27 E112.79041
G1 X98.57 Y159.84 E112.80872
G1 X98.42 Y159.61 E112.81791
G1 X98.17 Y159.06 E112.83777
G1 X98.02 Y158.46 E112.85845
G1 X97.98 Y158.16 E112.86844
G1 X97.97 Y157.84 E112.87939
G1 X98.02 Y157.20 E112.90062
G1 X98.18 Y156.61 E112.92081
G1 X98.30 Y156.32 E112.93138
G1 X98.44 Y156.06 E112.94120
G1 X98.75 Y155.62 E112.95923
G1 X98.93 Y155.43 E112.96791
G1 X99.18 Y155.21 E112.97904
G1 X99.40 Y155.05 E112.98788
G1 X99.87 Y154.79 E113.00578
G1 X100.43 Y154.61 E113.02522
G1 X100.89 Y154.53 E113.04096
G1 X100.89 Y149.42 E113.21079
G1 X100.17 Y149.47 E113.23494
G1 X99.65 Y149.51 E113.25216
G1 X99.14 Y149.56 E113.26935
G1 X98.62 Y149.62 E113.28657
G1 X98.12 Y149.69 E113.30361
G1 X97.76 Y149.73 E113.31559
G1 X97.40 Y149.74 E113.32741
G1 X97.03 Y149.71 E113.33989
G1 X96.75 Y149.65 E113.34929
G1 X96.47 Y149.52 E113.35976
G1 X96.22 Y149.35 E113.36962
G1 X96.02 Y149.15 E113.37908
G1 X95.86 Y148.92 E113.38827
G1 X95.75 Y148.67 E113.39760
G1 X95.68 Y148.39 E113.40695
G1 X95.66 Y148.11 E113.41642
G1 X95.69 Y147.81 E113.42648
G1 X95.76 Y147.56 E113.43511
G1 X95.89 Y147.31 E113.44435
G1 X96.04 Y147.12 E113.45246
G1 X96.23 Y146.96 E113.46089
G1 X96.46 Y146.83 E113.46958
G1 X96.73 Y146.72 E113.47929
G1 X96.99 Y146.67 E113.48822
G1 X98.77 Y146.63 E113.54730
G1 X100.89 Y146.63 E113.61795
G1 X100.89 Y141.38 E113.79276
G1 X100.19 Y141.32 E113.81612
G1 X99.36 Y141.24 E113.84407
G1 X98.65 Y141.10 E113.86790
G1 X98.39 Y141.01 E113.87709
G1 X98.23 Y140.92 E113.88312
G1 X99.14 Y140.27 E113.92037
G1 X99.57 Y139.96 E113.93783
G1 X100.20 Y139.48 E113.96423
G1 X100.89 Y138.96 E113.99314
G1 X100.89 Y133.99 E114.15824
G1 X100.67 Y133.88 E114.16651
G1 X98.08 Y135.88 E114.27528
G1 X97.36 Y136.43 E114.30537
G1 X96.93 Y136.75 E114.32331
G1 X96.20 Y137.29 E114.35327
G1 X95.76 Y137.60 E114.37123
G1 X95.01 Y138.12 E114.40168
G1 X94.55 Y138.42 E114.42008
G1 X93.69 Y138.96 E114.45353
G1 X93.26 Y139.21 E114.47035
G1 X92.44 Y139.66 E114.50130
G1 X91.99 Y139.89 E114.51810
G1 X91.50 Y140.11 E114.53592
G1 X90.79 Y140.38 E114.56126
G1 X90.03 Y140.62 E114.58766
G1 X89.18 Y140.82 E114.61694
G1 X88.36 Y140.94 E114.64462
G1 X87.96 Y140.97 E114.65780
G1 X87.55 Y140.98 E114.67160
G1 X87.08 Y140.97 E114.68701
G1 X86.30 Y140.89 E114.71321
G1 X85.47 Y140.73 E114.74130
G1 X84.65 Y140.50 E114.76949
G1 X83.89 Y140.23 E114.79641
G1 X83.07 Y139.85 E114.82654
G1 X82.57 Y139.60 E114.84501
G1 X81.78 Y139.18 E114.87475
G1 X81.33 Y138.91 E114.89220
G1 X80.61 Y138.46 E114.92064
G1 X80.15 Y138.16 E114.93866
G1 X79.56 Y137.75 E114.96271
G1 X78.90 Y137.28 E114.98945
G1 X78.27 Y136.81 E115.01589
G1 X77.01 Y135.86 E115.06840
G1 X74.73 Y134.10 E115.16392
G1 X74.14 Y133.66 E115.18847
G1 X73.55 Y133.21 E115.21326
G1 X73.13 Y132.91 E115.23035
G1 X72.42 Y132.40 E115.25935
G1 X71.99 Y132.10 E115.27690
G1 X71.24 Y131.60 E115.30672
G1 X70.80 Y131.32 E115.32438
G1 X70.17 Y130.93 E115.34877
G1 X69.42 Y130.49 E115.37797
G1 X68.95 Y130.24 E115.39548
G1 X68.24 Y129.88 E115.42187
G1 X67.42 Y129.51 E115.45199
G1 X66.92 Y129.31 E115.46990
G1 X66.09 Y129.01 E115.49910
G1 X65.24 Y128.76 E115.52859
G1 X64.39 Y128.56 E115.55781
G1 X63.52 Y128.42 E115.58696
G1 X62.65 Y128.34 E115.61602
G1 X61.77 Y128.32 E115.64513
G1 X60.90 Y128.35 E115.67439
G1 X60.01 Y128.44 E115.70387
G1 X59.13 Y128.58 E115.73366
G1 X58.63 Y128.69 E115.75064
G1 X57.80 Y128.91 E115.77924
G1 X57.29 Y129.07 E115.79704
G1 X56.49 Y129.35 E115.82523
G1 X55.71 Y129.69 E115.85341
G1 X55.20 Y129.93 E115.87220
G1 X54.40 Y130.34 E115.90210
G1 X53.95 Y130.60 E115.91946
G1 X53.50 Y130.86 E115.93675
G1 X53.06 Y131.12 E115.95376
G1 X52.27 Y131.62 E115.98491
G1 X51.81 Y131.93 E116.00312
G1 X51.07 Y132.44 E116.03301
G1 X50.64 Y132.74 E116.05056
G1 X49.94 Y133.26 E116.07944
G1 X49.53 Y133.56 E116.09647
G1 X47.61 Y135.03 E116.17693
G1 X47.19 Y135.41 E116.19574
G1 X46.84 Y135.80 E116.21320
G1 X46.55 Y136.28 E116.23162
G1 X46.43 Y136.80 E116.24960
G1 X46.44 Y137.18 E116.26201
G1 X46.48 Y137.56 E116.27487
G1 X46.63 Y137.98 E116.28958
G1 X46.87 Y138.35 E116.30435
G1 X47.19 Y138.67 E116.31928
G1 X47.58 Y138.90 E116.33422
G1 X48.00 Y139.04 E116.34896
G1 X48.44 Y139.08 E116.36368
G1 X48.88 Y139.02 E116.37852
G1 X49.35 Y138.85 E116.39499
G1 X49.70 Y138.66 E116.40816
G1 X50.38 Y138.15 E116.43645
G1 X51.51 Y137.27 E116.48438
G1 X52.23 Y136.72 E116.51428
G1 X52.65 Y136.40 E116.53202
G1 X53.38 Y135.88 E116.56201
G1 X53.83 Y135.56 E116.58002
G1 X54.60 Y135.05 E116.61087
G1 X55.32 Y134.59 E116.63941
G1 X56.08 Y134.13 E116.66888
G1 X57.16 Y133.55 E116.70959
G1 X57.89 Y133.22 E116.73628
G1 X58.69 Y132.92 E116.76474
G1 X59.18 Y132.77 E116.78166
G1 X59.94 Y132.57 E116.80780
G1 X60.71 Y132.44 E116.83375
G1 X61.54 Y132.38 E116.86159
G1 X61.99 Y132.38 E116.87656
G1 X62.51 Y132.41 E116.89372
G1 X63.34 Y132.52 E116.92170
G1 X63.87 Y132.64 E116.93957
G1 X64.75 Y132.89 E116.97022
G1 X65.23 Y133.06 E116.98717
G1 X66.02 Y133.38 E117.01526
G1 X66.79 Y133.75 E117.04376
G1 X67.54 Y134.17 E117.07239
G1 X68.30 Y134.63 E117.10183
G1 X68.72 Y134.91 E117.11868
G1 X69.48 Y135.41 E117.14895
G1 X69.92 Y135.72 E117.16673
G1 X70.64 Y136.24 E117.19640
G1 X71.07 Y136.56 E117.21422
G1 X71.52 Y136.89 E117.23295
G1 X72.42 Y137.58 E117.27063
G1 X74.65 Y139.30 E117.36425
G1 X75.36 Y139.83 E117.39377
G1 X75.77 Y140.13 E117.41051
G1 X76.46 Y140.63 E117.43887
G1 X76.88 Y140.93 E117.45600
G1 X77.63 Y141.45 E117.48646
G1 X78.10 Y141.76 E117.50516
G1 X78.53 Y142.04 E117.52217
G1 X78.97 Y142.32 E117.53960
G1 X79.42 Y142.59 E117.55691
G1 X80.10 Y142.97 E117.58278
G1 X80.87 Y143.36 E117.61152
G1 X81.69 Y143.74 E117.64158
G1 X82.17 Y143.94 E117.65918
G1 X83.04 Y144.27 E117.68990
G1 X83.52 Y144.43 E117.70682
G1 X84.01 Y144.57 E117.72376
G1 X84.51 Y144.69 E117.74075
G1 X85.01 Y144.79 E117.75780
G1 X85.52 Y144.88 E117.77487
G1 X86.03 Y144.94 E117.79192
G1 X86.53 Y144.99 E117.80896
G1 X87.04 Y145.03 E117.82592
G1 X87.55 Y145.04 E117.84282
G1 X88.12 Y145.03 E117.86168
G1 X89.05 Y144.97 E117.89279
G1 X89.60 Y144.90 E117.91116
G1 X90.49 Y144.73 E117.94126
G1 X90.99 Y144.60 E117.95834
G1 X91.16 Y144.55 E117.96423
G1 X91.00 Y144.76 E117.97290
G1 X90.56 Y145.54 E118.00252
G1 X90.37 Y146.00 E118.01912
G1 X90.24 Y146.42 E118.03373
G1 X90.08 Y147.22 E118.06104
G1 X90.05 Y147.66 E118.07564
G1 X90.06 Y148.16 E118.09214
G1 X90.17 Y148.98 E118.11981
G1 X90.41 Y149.85 E118.14996
G1 X90.62 Y150.34 E118.16745
G1 X90.83 Y150.76 E118.18320
G1 X91.33 Y151.53 E118.21366
G1 X91.69 Y151.97 E118.23250
G1 X92.05 Y152.34 E118.24974
G1 X92.43 Y152.70 E118.26692
G1 X93.03 Y153.18 E118.29265
G1 X93.59 Y153.54 E118.31476
G1 X93.17 Y154.33 E118.34431
G1 X92.82 Y155.19 E118.37535
G1 X92.66 Y155.72 E118.39395
G1 X92.45 Y156.62 E118.42457
G1 X92.37 Y157.17 E118.44312
G1 X92.33 Y157.61 E118.45772
G1 X92.30 Y158.18 E118.47656
G1 X92.33 Y159.13 E118.50840
G1 X92.39 Y159.68 E118.52652
G1 X92.59 Y160.56 E118.55676
G1 F3600 E117.15676
G0 F12000 X101.55 Y161.22
G1 F3600 E118.55676
G1 F2700 X101.55 Y166.88 E118.74494
G1 X103.77 Y166.91 E118.81902
G1 X105.80 Y166.92 E118.88657
G1 X109.88 Y166.91 E119.02197
G1 X110.46 Y166.84 E119.04170
G1 X110.90 Y166.59 E119.05850
G1 X111.15 Y166.15 E119.07524
G1 X111.24 Y165.57 E119.09489
G1 X111.27 Y164.34 E119.13568
G1 X111.06 Y163.58 E119.16214
G1 X110.42 Y163.11 E119.18859
G1 X108.07 Y162.32 E119.27098
G1 X108.56 Y161.73 E119.29653
G1 X109.09 Y160.85 E119.33067
G1 X109.48 Y159.91 E119.36426
G1 X109.72 Y158.92 E119.39839
G1 X109.85 Y157.33 E119.45119
G1 X109.68 Y155.80 E119.50258
G1 X109.22 Y154.35 E119.55306
G1 X108.50 Y153.03 E119.60323
G1 X107.55 Y151.86 E119.65332
G1 X106.38 Y150.88 E119.70391
G1 X105.03 Y150.13 E119.75537
G1 X103.51 Y149.65 E119.80841
G1 X101.55 Y149.41 E119.87425
G1 X101.55 Y154.53 E120.04457
G1 X102.31 Y154.71 E120.07050
G1 X102.83 Y154.93 E120.08945
G1 X103.29 Y155.25 E120.10809
G1 X103.69 Y155.65 E120.12681
G1 X104.00 Y156.11 E120.14532
G1 X104.24 Y156.65 E120.16490
G1 X104.38 Y157.24 E120.18516
G1 X104.43 Y157.88 E120.20660
G1 X104.37 Y158.52 E120.22800
G1 X104.22 Y159.12 E120.24852
G1 X103.98 Y159.65 E120.26767
G1 X103.66 Y160.11 E120.28640
G1 X103.27 Y160.50 E120.30496
G1 X102.81 Y160.82 E120.32338
G1 X102.29 Y161.05 E120.34221
G1 X101.55 Y161.22 E120.36767
G1 F3600 E118.96767
G0 F12000 X114.92 Y159.52
G1 F3600 E120.36767
G1 F2700 X115.07 Y160.25 E120.39257
G1 X115.30 Y160.99 E120.41810
G1 X115.61 Y161.72 E120.44446
G1 X115.98 Y162.43 E120.47122
G1 X116.39 Y163.09 E120.49709
G1 X116.83 Y163.71 E120.52242
G1 X117.32 Y164.28 E120.54727
G1 X117.84 Y164.80 E120.57166
G1 X118.25 Y165.15 E120.58985
G1 X118.69 Y165.48 E120.60794
G1 X119.15 Y165.77 E120.62605
G1 X119.63 Y166.03 E120.64417
G1 X120.13 Y166.26 E120.66245
G1 X120.65 Y166.45 E120.68102
G1 X121.38 Y166.65 E120.70618
G1 X122.23 Y166.79 E120.73478
G1 X122.77 Y166.84 E120.75294
G1 X123.41 Y166.86 E120.77401
G1 X123.41 Y161.21 E120.96186
G1 X122.92 Y161.11 E120.97854
G1 X122.65 Y161.02 E120.98787
G1 X122.16 Y160.79 E121.00589
G1 X121.70 Y160.46 E121.02476
G1 X121.49 Y160.27 E121.03417
G1 X121.28 Y160.04 E121.04445
G1 X120.98 Y159.59 E121.06246
G1 X120.73 Y159.06 E121.08208
G1 X120.64 Y158.74 E121.09301
G1 X120.55 Y158.18 E121.11199
G1 X120.53 Y157.85 E121.12271
G1 X120.55 Y157.49 E121.13483
G1 X120.65 Y156.92 E121.15409
G1 X120.84 Y156.36 E121.17385
G1 X121.12 Y155.87 E121.19253
G1 X121.48 Y155.44 E121.21112
G1 X121.71 Y155.23 E121.22149
G1 X122.14 Y154.94 E121.23861
G1 X122.66 Y154.71 E121.25778
G1 X123.41 Y154.54 E121.28317
G1 X123.41 Y149.43 E121.45317
G1 X122.69 Y149.47 E121.47695
G1 X122.19 Y149.51 E121.49385
G1 X121.68 Y149.57 E121.51070
G1 X121.18 Y149.63 E121.52757
G1 X120.68 Y149.70 E121.54425
G1 X120.34 Y149.73 E121.55566
G1 X120.00 Y149.75 E121.56694
G1 X119.65 Y149.72 E121.57882
G1 X119.38 Y149.66 E121.58793
G1 X119.09 Y149.55 E121.59813
G1 X118.84 Y149.38 E121.60825
G1 X118.62 Y149.18 E121.61825
G1 X118.44 Y148.94 E121.62796
G1 X118.31 Y148.68 E121.63774
G1 X118.23 Y148.41 E121.64704
G1 X118.19 Y148.14 E121.65633
G1 X118.21 Y147.88 E121.66490
G1 X118.30 Y147.59 E121.67518
G1 X118.42 Y147.35 E121.68402
G1 X118.56 Y147.17 E121.69133
G1 X118.78 Y146.97 E121.70142
G1 X118.98 Y146.85 E121.70932
G1 X119.28 Y146.73 E121.71976
G1 X119.56 Y146.66 E121.72947
G1 X119.89 Y146.64 E121.74051
G1 X121.31 Y146.63 E121.78774
G1 X123.41 Y146.64 E121.85742
G1 X123.41 Y141.36 E122.03280
G1 X121.85 Y141.26 E122.08471
G1 X121.41 Y141.16 E122.09963
G1 X121.04 Y141.04 E122.11254
G1 X120.69 Y140.86 E122.12575
G1 X120.36 Y140.64 E122.13883
G1 X120.11 Y140.42 E122.15008
G1 X119.87 Y140.15 E122.16195
G1 X119.65 Y139.81 E122.17537
G1 X119.52 Y139.51 E122.18628
G1 X119.46 Y139.25 E122.19521
G1 X119.44 Y138.88 E122.20763
G1 X119.49 Y138.49 E122.22073
G1 X119.58 Y138.18 E122.23133
G1 X119.72 Y137.87 E122.24283
G1 X119.96 Y137.53 E122.25678
G1 X120.19 Y137.29 E122.26767
G1 X120.50 Y137.06 E122.28054
G1 X120.88 Y136.87 E122.29476
G1 X121.68 Y136.59 E122.32288
G1 X122.44 Y136.41 E122.34868
G1 X123.19 Y136.97 E122.37965
G1 X123.41 Y136.85 E122.38784
G1 X123.41 Y132.01 E122.54902
G1 X122.88 Y131.66 E122.56996
G1 X122.18 Y131.20 E122.59798
G1 X121.41 Y130.73 E122.62804
G1 X120.94 Y130.46 E122.64585
G1 X120.11 Y130.02 E122.67716
G1 X119.39 Y129.68 E122.70381
G1 X118.60 Y129.35 E122.73194
G1 X117.76 Y129.05 E122.76173
G1 X117.25 Y128.89 E122.77936
G1 X116.42 Y128.67 E122.80814
G1 X115.56 Y128.49 E122.83732
G1 X114.69 Y128.38 E122.86642
G1 X113.82 Y128.32 E122.89539
G1 X113.33 Y128.31 E122.91186
G1 X112.45 Y128.34 E122.94121
G1 X111.91 Y128.39 E122.95905
G1 X111.03 Y128.52 E122.98889
G1 X110.49 Y128.63 E123.00711
G1 X109.98 Y128.75 E123.02438
G1 X109.09 Y129.00 E123.05504
G1 X108.60 Y129.16 E123.07236
G1 X107.83 Y129.45 E123.09976
G1 X107.32 Y129.67 E123.11831
G1 X106.53 Y130.05 E123.14741
G1 X105.78 Y130.46 E123.17574
G1 X105.32 Y130.72 E123.19336
G1 X104.87 Y130.98 E123.21064
G1 X104.44 Y131.25 E123.22764
G1 X104.01 Y131.52 E123.24445
G1 X103.54 Y131.82 E123.26298
G1 X102.78 Y132.33 E123.29340
G1 X102.34 Y132.64 E123.31128
G1 X101.55 Y133.22 E123.34409
G1 X101.55 Y138.17 E123.50866
G1 X101.77 Y138.28 E123.51694
G1 X102.73 Y137.54 E123.55735
G1 X103.43 Y137.00 E123.58661
G1 X103.71 Y136.80 E123.59804
G1 X104.19 Y137.03 E123.61599
G1 X104.55 Y137.27 E123.63035
G1 X104.79 Y137.48 E123.64080
G1 X105.02 Y137.74 E123.65238
G1 X105.21 Y138.07 E123.66506
G1 X105.33 Y138.39 E123.67646
G1 X105.39 Y138.69 E123.68644
G1 X105.41 Y139.06 E123.69880
G1 X105.38 Y139.44 E123.71166
G1 X105.30 Y139.78 E123.72329
G1 X105.17 Y140.09 E123.73446
G1 X104.97 Y140.39 E123.74633
G1 X104.79 Y140.59 E123.75531
G1 X104.54 Y140.79 E123.76600
G1 X104.23 Y140.97 E123.77791
G1 X103.90 Y141.10 E123.78976
G1 X103.61 Y141.18 E123.79986
G1 X103.11 Y141.28 E123.81668
G1 X102.58 Y141.35 E123.83460
G1 X101.55 Y141.47 E123.86912
G1 X101.55 Y146.63 E124.04095
G1 X103.42 Y146.63 E124.10337
G1 X103.96 Y146.63 E124.12114
G1 X104.83 Y146.59 E124.15004
G1 X105.34 Y146.53 E124.16734
G1 X106.19 Y146.38 E124.19589
G1 X107.06 Y146.13 E124.22615
G1 X107.55 Y145.96 E124.24327
G1 X107.97 Y145.77 E124.25854
G1 X108.33 Y145.59 E124.27215
G1 X108.79 Y145.33 E124.28969
G1 X109.53 Y144.83 E124.31922
G1 X109.93 Y144.49 E124.33680
G1 X110.53 Y143.87 E124.36538
G1 X110.84 Y143.46 E124.38251
G1 X111.29 Y142.75 E124.41062
G1 X111.67 Y141.94 E124.44036
G1 X111.83 Y141.46 E124.45716
G1 X111.95 Y141.03 E124.47215
G1 X112.10 Y140.20 E124.50009
G1 X112.14 Y139.74 E124.51524
G1 X112.14 Y139.29 E124.53047
G1 X112.08 Y138.38 E124.56073
G1 X111.98 Y137.86 E124.57819
G1 X111.75 Y137.02 E124.60737
G1 X111.56 Y136.51 E124.62525
G1 X111.36 Y136.07 E124.64142
G1 X110.90 Y135.27 E124.67199
G1 X110.57 Y134.81 E124.69085
G1 X109.99 Y134.10 E124.72131
G1 X109.61 Y133.72 E124.73937
G1 X109.18 Y133.35 E124.75818
G1 X110.26 Y132.92 E124.79659
G1 X110.75 Y132.76 E124.81396
G1 X111.25 Y132.63 E124.83104
G1 X111.74 Y132.52 E124.84780
G1 X112.28 Y132.44 E124.86600
G1 X112.69 Y132.40 E124.87971
G1 X113.23 Y132.38 E124.89775
G1 X113.72 Y132.39 E124.91375
G1 X114.54 Y132.46 E124.94117
G1 X115.33 Y132.61 E124.96791
G1 X116.12 Y132.83 E124.99523
G1 X116.02 Y132.90 E124.99929
G1 X115.64 Y133.21 E125.01552
G1 X115.25 Y133.56 E125.03278
G1 X114.90 Y133.93 E125.04995
G1 X114.33 Y134.68 E125.08112
G1 X114.06 Y135.15 E125.09945
G1 X113.86 Y135.54 E125.11375
G1 X113.67 Y136.04 E125.13164
G1 X113.53 Y136.50 E125.14758
G1 X113.38 Y137.36 E125.17671
G1 X113.36 Y137.83 E125.19243
G1 X113.39 Y138.35 E125.20978
G1 X113.46 Y138.82 E125.22535
G1 X113.57 Y139.27 E125.24097
G1 X113.73 Y139.72 E125.25681
G1 X113.93 Y140.16 E125.27273
G1 X114.14 Y140.51 E125.28640
G1 X114.46 Y140.92 E125.30378
G1 X115.05 Y141.56 E125.33280
G1 X115.41 Y141.93 E125.35002
G1 X115.73 Y142.27 E125.36538
G1 X116.11 Y142.57 E125.38155
G1 X115.92 Y142.66 E125.38876
G1 X115.13 Y143.12 E125.41898
G1 X114.71 Y143.44 E125.43644
G1 X114.10 Y144.00 E125.46429
G1 X113.81 Y144.34 E125.47893
G1 X113.53 Y144.73 E125.49496
G1 X113.14 Y145.41 E125.52108
G1 X112.84 Y146.18 E125.54855
G1 X112.67 Y146.98 E125.57573
G1 X112.62 Y147.39 E125.58950
G1 X112.61 Y147.80 E125.60321
G1 X112.63 Y148.27 E125.61870
G1 X112.74 Y149.04 E125.64468
G1 X112.98 Y149.86 E125.67288
G1 X113.33 Y150.65 E125.70172
G1 X113.80 Y151.41 E125.73125
G1 X114.11 Y151.81 E125.74842
G1 X114.71 Y152.46 E125.77754
G1 X115.12 Y152.82 E125.79571
G1 X115.87 Y153.37 E125.82662
G1 X116.14 Y153.53 E125.83737
G1 X115.86 Y154.08 E125.85778
G1 X115.54 Y154.80 E125.88397
G1 X115.27 Y155.52 E125.90953
G1 X115.07 Y156.24 E125.93459
G1 X114.89 Y157.15 E125.96524
G1 X114.83 Y157.69 E125.98360
G1 X114.81 Y158.24 E126.00181
G1 X114.83 Y158.79 E126.02011
G1 X114.92 Y159.52 E126.04455
G1 F3600 E124.64455
G0 F12000 X124.06 Y146.64
G1 F3600 E126.04455
G1 F2700 X124.78 Y146.63 E126.06836
G1 X125.81 Y146.63 E126.10266
G1 X126.33 Y146.62 E126.11989
G1 X126.84 Y146.60 E126.13693
G1 X127.35 Y146.56 E126.15407
G1 X127.86 Y146.51 E126.17127
G1 X128.38 Y146.43 E126.18843
G1 X128.88 Y146.33 E126.20563
G1 X129.57 Y146.14 E126.22940
G1 X130.23 Y145.91 E126.25254
G1 X130.73 Y145.68 E126.27077
G1 X131.20 Y145.43 E126.28862
G1 X131.65 Y145.16 E126.30619
G1 X132.08 Y144.85 E126.32354
G1 X132.49 Y144.50 E126.34165
G1 X133.01 Y143.99 E126.36576
G1 X133.23 Y143.72 E126.37726
G1 X134.03 Y144.05 E126.40603
G1 X134.51 Y144.23 E126.42305
G1 X135.00 Y144.40 E126.44024
G1 X135.49 Y144.55 E126.45749
G1 X136.00 Y144.68 E126.47476
G1 X136.50 Y144.79 E126.49199
G1 X137.01 Y144.88 E126.50920
G1 X137.52 Y144.96 E126.52639
G1 X138.04 Y145.01 E126.54364
G1 X138.56 Y145.04 E126.56087
G1 X139.07 Y145.05 E126.57813
G1 X139.59 Y145.04 E126.59543
G1 X140.12 Y145.01 E126.61279
G1 X140.64 Y144.96 E126.63019
G1 X141.16 Y144.89 E126.64761
G1 X141.68 Y144.80 E126.66517
G1 X142.19 Y144.69 E126.68278
G1 X142.70 Y144.56 E126.70016
G1 X143.19 Y144.42 E126.71720
G1 X143.70 Y144.26 E126.73490
G1 X144.36 Y144.02 E126.75830
G1 X145.01 Y143.74 E126.78186
G1 X145.49 Y143.51 E126.79951
G1 X145.96 Y143.28 E126.81682
G1 X146.41 Y143.05 E126.83377
G1 X146.88 Y142.79 E126.85140
G1 X147.33 Y142.53 E126.86888
G1 X147.77 Y142.27 E126.88579
G1 X148.22 Y142.00 E126.90338
G1 X148.66 Y141.72 E126.92062
G1 X149.11 Y141.42 E126.93864
G1 X149.57 Y141.10 E126.95737
G1 X150.02 Y140.78 E126.97560
G1 X150.45 Y140.47 E126.99332
G1 X150.87 Y140.16 E127.01052
G1 X151.84 Y139.43 E127.05110
G1 X152.78 Y138.71 E127.09026
G1 X154.54 Y137.35 E127.16441
G1 X154.94 Y137.04 E127.18110
G1 X155.57 Y136.57 E127.20716
G1 X156.15 Y136.15 E127.23132
G1 X156.56 Y135.85 E127.24798
G1 X156.98 Y135.56 E127.26495
G1 X157.40 Y135.27 E127.28197
G1 X157.83 Y134.99 E127.29907
G1 X158.27 Y134.70 E127.31655
G1 X158.71 Y134.43 E127.33375
G1 X159.30 Y134.07 E127.35678
G1 X159.75 Y133.82 E127.37366
G1 X160.35 Y133.52 E127.39612
G1 X160.81 Y133.31 E127.41306
G1 X161.48 Y133.04 E127.43711
G1 X161.97 Y132.87 E127.45420
G1 X162.93 Y132.60 E127.48737
G1 X163.56 Y132.48 E127.50874
G1 X164.24 Y132.40 E127.53151
G1 X164.90 Y132.38 E127.55364
G1 X165.57 Y132.41 E127.57588
G1 X166.25 Y132.49 E127.59866
G1 X166.74 Y132.58 E127.61503
G1 X167.24 Y132.70 E127.63223
G1 X167.71 Y132.83 E127.64851
G1 X168.38 Y133.06 E127.67213
G1 X169.47 Y133.55 E127.71187
G1 X169.92 Y133.78 E127.72866
G1 X170.55 Y134.11 E127.75228
G1 X171.00 Y134.37 E127.76953
G1 X171.43 Y134.63 E127.78631
G1 X171.53 Y134.70 E127.79021
G1 X171.53 Y164.88 E128.79417
G1 X171.54 Y165.16 E128.80359
G1 X171.60 Y165.57 E128.81733
G1 X171.71 Y165.85 E128.82726
G1 X171.88 Y166.08 E128.83672
G1 X172.11 Y166.25 E128.84610
G1 X172.38 Y166.35 E128.85593
G1 X172.60 Y166.39 E128.86334
G1 X173.12 Y166.42 E128.88059
G1 X173.45 Y166.42 E128.89170
G1 X174.23 Y166.43 E128.91765
G1 X174.74 Y166.40 E128.93443
G1 X174.99 Y166.35 E128.94299
G1 X175.19 Y166.26 E128.95033
G1 X175.39 Y166.08 E128.95931
G1 X175.54 Y165.86 E128.96814
G1 X176.15 Y164.40 E129.02087
G1 X176.78 Y164.91 E129.04808
G1 X177.21 Y165.21 E129.06523
G1 X177.66 Y165.50 E129.08306
G1 X178.28 Y165.85 E129.10683
G1 X178.75 Y166.08 E129.12413
G1 X179.39 Y166.35 E129.14727
G1 X180.06 Y166.57 E129.17099
G1 X180.75 Y166.75 E129.19438
G1 X181.44 Y166.87 E129.21775
G1 X181.44 Y161.20 E129.40634
G1 X180.77 Y161.11 E129.42884
G1 X180.55 Y161.06 E129.43613
G1 X180.32 Y160.99 E129.44412
G1 X179.91 Y160.81 E129.45895
G1 X179.34 Y160.47 E129.48120
G1 X178.98 Y160.17 E129.49671
G1 X178.65 Y159.83 E129.51256
G1 X178.37 Y159.46 E129.52795
G1 X178.06 Y158.88 E129.54972
G1 X177.89 Y158.43 E129.56588
G1 X177.80 Y158.00 E129.58030
G1 X177.78 Y157.78 E129.58769
G1 X177.77 Y157.10 E129.61048
G1 X177.77 Y155.21 E129.67317
G1 X177.76 Y154.05 E129.71175
G1 X177.77 Y153.48 E129.73085
G1 X177.79 Y152.91 E129.74955
G1 X177.83 Y152.72 E129.75622
G1 X177.91 Y152.55 E129.76247
G1 X177.99 Y152.43 E129.76730
G1 X178.12 Y152.32 E129.77289
G1 X178.74 Y152.03 E129.79566
G1 X179.21 Y151.85 E129.81228
G1 X179.84 Y151.66 E129.83419
G1 X180.42 Y151.55 E129.85408
G1 X180.83 Y151.50 E129.86774
G1 X181.44 Y151.48 E129.88785
G1 X181.44 Y145.77 E130.07773
G1 X180.68 Y145.88 E130.10320
G1 X180.14 Y145.99 E130.12138
G1 X178.97 Y146.32 E130.16180
G1 X178.48 Y146.50 E130.17929
G1 X178.02 Y146.69 E130.19565
G1 X178.00 Y145.94 E130.22057
G1 X178.00 Y139.46 E130.43596
G1 X178.51 Y139.84 E130.45707
G1 X178.93 Y140.16 E130.47449
G1 X179.37 Y140.48 E130.49272
G1 X179.81 Y140.80 E130.51071
G1 X180.25 Y141.10 E130.52849
G1 X180.68 Y141.40 E130.54612
G1 X181.12 Y141.70 E130.56369
G1 X181.57 Y141.98 E130.58114
G1 X182.01 Y142.26 E130.59871
G1 X182.47 Y142.53 E130.61632
G1 X182.93 Y142.79 E130.63403
G1 X183.41 Y143.05 E130.65199
G1 X183.87 Y143.28 E130.66907
G1 X184.33 Y143.51 E130.68623
G1 X184.98 Y143.81 E130.71001
G1 X185.45 Y144.01 E130.72704
G1 X185.93 Y144.20 E130.74418
G1 X186.42 Y144.37 E130.76150
G1 X186.92 Y144.52 E130.77899
G1 X187.43 Y144.66 E130.79655
G1 X187.95 Y144.77 E130.81421
G1 X188.48 Y144.86 E130.83198
G1 X189.01 Y144.93 E130.84984
G1 X189.55 Y144.99 E130.86775
G1 X190.09 Y145.02 E130.88570
G1 X190.63 Y145.03 E130.90377
G1 X191.15 Y145.02 E130.92110
G1 X191.85 Y144.97 E130.94439
G1 X192.36 Y144.92 E130.96161
G1 X193.05 Y144.82 E130.98478
G1 X193.56 Y144.72 E131.00181
G1 X194.23 Y144.56 E131.02489
G1 X194.72 Y144.42 E131.04191
G1 X195.38 Y144.20 E131.06495
G1 X195.89 Y144.01 E131.08301
G1 X196.37 Y143.81 E131.10046
G1 X196.84 Y143.61 E131.11741
G1 X197.32 Y143.39 E131.13487
G1 X197.93 Y143.07 E131.15773
G1 X198.38 Y142.83 E131.17464
G1 X198.84 Y142.56 E131.19259
G1 X199.29 Y142.29 E131.21006
G1 X199.73 Y142.02 E131.22703
G1 X200.17 Y141.74 E131.24459
G1 X200.60 Y141.45 E131.26177
G1 X201.04 Y141.15 E131.27951
G1 X201.47 Y140.85 E131.29701
G1 X201.90 Y140.54 E131.31437
G1 X202.31 Y140.24 E131.33156
G1 X202.74 Y139.93 E131.34894
G1 X203.24 Y139.55 E131.36987
G1 X203.76 Y139.15 E131.39190
G1 X206.29 Y137.20 E131.49789
G1 X206.85 Y136.78 E131.52130
G1 X207.25 Y136.48 E131.53795
G1 X207.80 Y136.08 E131.56063
G1 X208.64 Y135.49 E131.59478
G1 X209.07 Y135.19 E131.61214
G1 X209.50 Y134.90 E131.62929
G1 X209.94 Y134.62 E131.64650
G1 X210.38 Y134.35 E131.66403
G1 X210.82 Y134.10 E131.68092
G1 X211.46 Y133.76 E131.70482
G1 X212.48 Y133.27 E131.74254
G1 X213.13 Y133.01 E131.76573
G1 X213.79 Y132.78 E131.78907
G1 X214.44 Y132.61 E131.81131
G1 X215.12 Y132.48 E131.83441
G1 X215.80 Y132.41 E131.85706
G1 X216.48 Y132.39 E131.87979
G1 X217.16 Y132.42 E131.90249
G1 X217.85 Y132.50 E131.92560
G1 X218.51 Y132.63 E131.94792
G1 X219.19 Y132.81 E131.97133
G1 X220.13 Y133.15 E132.00467
G1 X220.60 Y133.34 E132.02140
G1 X221.65 Y133.85 E132.06027
G1 X222.13 Y134.11 E132.07834
G1 X222.59 Y134.38 E132.09620
G1 X223.03 Y134.65 E132.11321
G1 X223.45 Y134.92 E132.12989
G1 X223.89 Y135.22 E132.14740
G1 X224.31 Y135.50 E132.16455
G1 X224.74 Y135.80 E132.18165
G1 X225.15 Y136.10 E132.19857
G1 X225.56 Y136.40 E132.21552
G1 X226.04 Y136.75 E132.23547
G1 X226.60 Y137.17 E132.25860
G1 X229.72 Y139.58 E132.38978
G1 X230.26 Y139.98 E132.41209
G1 X230.80 Y140.38 E132.43455
G1 X231.22 Y140.68 E132.45146
G1 X231.63 Y140.97 E132.46849
G1 X232.05 Y141.27 E132.48556
G1 X232.48 Y141.56 E132.50282
G1 X232.92 Y141.85 E132.52024
G1 X233.37 Y142.14 E132.53790
G1 X233.81 Y142.41 E132.55523
G1 X234.25 Y142.66 E132.57218
G1 X234.71 Y142.92 E132.58948
G1 X235.18 Y143.16 E132.60715
G1 X235.63 Y143.39 E132.62395
G1 X236.27 Y143.69 E132.64738
G1 X236.76 Y143.90 E132.66520
G1 X237.24 Y144.09 E132.68234
G1 X237.73 Y144.27 E132.69966
G1 X238.72 Y144.56 E132.73400
G1 X239.25 Y144.68 E132.75210
G1 X239.77 Y144.77 E132.76982
G1 X240.43 Y144.87 E132.79204
G1 X241.14 Y144.94 E132.81553
G1 X241.85 Y144.97 E132.83931
G1 X242.37 Y144.98 E132.85644
G1 X242.88 Y144.97 E132.87351
G1 X243.42 Y144.94 E132.89142
G1 X243.94 Y144.90 E132.90902
G1 X244.74 Y144.79 E132.93587
G1 X245.39 Y144.67 E132.95762
G1 X246.08 Y144.49 E132.98141
G1 X246.59 Y144.33 E132.99922
G1 X247.10 Y144.14 E133.01727
G1 X247.59 Y143.94 E133.03479
G1 X248.22 Y143.65 E133.05818
G1 X248.69 Y143.41 E133.07549
G1 X249.20 Y143.10 E133.09540
G1 X249.71 Y142.74 E133.11610
G1 X250.10 Y142.40 E133.13350
G1 X250.38 Y142.05 E133.14834
G1 X250.50 Y141.81 E133.15726
G1 X250.63 Y141.36 E133.17263
G1 X250.66 Y141.16 E133.17943
G1 X250.66 Y140.92 E133.18732
G1 X250.57 Y140.45 E133.20340
G1 X250.39 Y140.04 E133.21810
G1 X250.24 Y139.82 E133.22726
G1 X250.07 Y139.64 E133.23529
G1 X249.91 Y139.50 E133.24238
G1 X249.69 Y139.34 E133.25131
G1 X249.28 Y139.16 E133.26648
G1 X248.85 Y139.08 E133.28078
G1 X248.61 Y139.08 E133.28873
G1 X248.35 Y139.10 E133.29740
G1 X248.12 Y139.16 E133.30544
G1 X247.69 Y139.35 E133.32106
G1 X247.24 Y139.61 E133.33830
G1 X246.34 Y140.06 E133.37191
G1 X245.76 Y140.30 E133.39281
G1 X245.09 Y140.52 E133.41609
G1 X244.57 Y140.66 E133.43394
G1 X244.06 Y140.79 E133.45144
G1 X243.55 Y140.88 E133.46878
G1 X242.85 Y140.96 E133.49224
G1 X242.35 Y140.98 E133.50871
G1 X241.84 Y140.97 E133.52581
G1 X240.87 Y140.87 E133.55810
G1 X240.25 Y140.75 E133.57931
G1 X239.65 Y140.60 E133.59996
G1 X239.17 Y140.44 E133.61674
G1 X238.53 Y140.20 E133.63953
G1 X237.91 Y139.93 E133.66200
G1 X237.43 Y139.71 E133.67939
G1 X236.53 Y139.23 E133.71338
G1 X236.09 Y138.97 E133.73045
G1 X235.64 Y138.69 E133.74786
G1 X235.06 Y138.31 E133.77123
G1 X234.62 Y138.01 E133.78883
G1 X234.19 Y137.71 E133.80632
G1 X233.76 Y137.40 E133.82365
G1 X233.34 Y137.10 E133.84096
G1 X232.93 Y136.79 E133.85815
G1 X232.51 Y136.48 E133.87533
G1 X231.69 Y135.85 E133.90985
G1 X229.64 Y134.27 E133.99596
G1 X229.22 Y133.95 E134.01330
G1 X228.81 Y133.64 E134.03077
G1 X228.38 Y133.32 E134.04838
G1 X227.95 Y133.01 E134.06616
G1 X227.51 Y132.69 E134.08406
G1 X227.07 Y132.38 E134.10201
G1 X226.63 Y132.08 E134.11977
G1 X226.19 Y131.78 E134.13746
G1 X225.75 Y131.49 E134.15510
G1 X225.30 Y131.20 E134.17272
G1 X224.85 Y130.92 E134.19054
G1 X224.38 Y130.65 E134.20849
G1 X223.94 Y130.40 E134.22539
G1 X223.48 Y130.16 E134.24253
G1 X223.01 Y129.92 E134.26008
G1 X222.53 Y129.70 E134.27780
G1 X221.88 Y129.42 E134.30107
G1 X221.39 Y129.23 E134.31879
G1 X220.90 Y129.05 E134.33591
G1 X220.24 Y128.84 E134.35906
G1 X219.73 Y128.71 E134.37650
G1 X219.03 Y128.56 E134.40028
G1 X218.51 Y128.47 E134.41811
G1 X217.78 Y128.38 E134.44239
G1 X217.27 Y128.34 E134.45943
G1 X216.76 Y128.33 E134.47647
G1 X216.47 Y128.32 E134.48609
G1 X215.77 Y128.34 E134.50944
G1 X215.25 Y128.38 E134.52664
G1 X214.56 Y128.46 E134.54971
G1 X214.06 Y128.53 E134.56668
G1 X213.39 Y128.67 E134.58949
G1 X212.70 Y128.85 E134.61308
G1 X212.15 Y129.02 E134.63226
G1 X211.63 Y129.20 E134.65064
G1 X211.13 Y129.39 E134.66824
G1 X210.66 Y129.59 E134.68513
G1 X210.16 Y129.82 E134.70351
G1 X209.69 Y130.05 E134.72102
G1 X209.22 Y130.29 E134.73845
G1 X208.77 Y130.53 E134.75552
G1 X208.31 Y130.79 E134.77324
G1 X207.86 Y131.06 E134.79058
G1 X207.42 Y131.32 E134.80763
G1 X206.99 Y131.59 E134.82439
G1 X206.40 Y131.99 E134.84803
G1 X205.99 Y132.27 E134.86484
G1 X205.56 Y132.57 E134.88202
G1 X205.15 Y132.87 E134.89907
G1 X204.32 Y133.49 E134.93348
G1 X203.33 Y134.23 E134.97458
G1 X202.93 Y134.54 E134.99142
G1 X201.82 Y135.40 E135.03825
G1 X201.22 Y135.87 E135.06347
G1 X200.23 Y136.62 E135.10493
G1 X199.41 Y137.23 E135.13884
G1 X199.00 Y137.52 E135.15548
G1 X198.59 Y137.81 E135.17224
G1 X198.17 Y138.09 E135.18902
G1 X197.74 Y138.38 E135.20611
G1 X197.31 Y138.66 E135.22321
G1 X196.72 Y139.02 E135.24615
G1 X196.29 Y139.27 E135.26278
G1 X195.81 Y139.53 E135.28097
G1 X195.36 Y139.76 E135.29782
G1 X194.90 Y139.98 E135.31474
G1 X193.96 Y140.36 E135.34843
G1 X193.47 Y140.53 E135.36555
G1 X192.82 Y140.72 E135.38814
G1 X192.15 Y140.86 E135.41097
G1 X191.50 Y140.94 E135.43284
G1 X190.81 Y140.98 E135.45558
G1 X190.14 Y140.96 E135.47804
G1 X189.45 Y140.88 E135.50108
G1 X188.30 Y140.64 E135.54032
G1 X187.82 Y140.50 E135.55686
G1 X187.33 Y140.34 E135.57416
G1 X186.86 Y140.16 E135.59062
G1 X186.40 Y139.96 E135.60743
G1 X185.77 Y139.65 E135.63075
G1 X185.32 Y139.41 E135.64793
G1 X184.88 Y139.16 E135.66467
G1 X184.43 Y138.89 E135.68202
G1 X183.99 Y138.62 E135.69924
G1 X183.56 Y138.34 E135.71628
G1 X183.14 Y138.06 E135.73315
G1 X182.72 Y137.78 E135.74975
G1 X182.14 Y137.37 E135.77358
G1 X181.72 Y137.06 E135.79080
G1 X181.30 Y136.76 E135.80810
G1 X180.89 Y136.45 E135.82518
G1 X179.02 Y135.01 E135.90363
G1 X178.06 Y134.26 E135.94390
G1 X177.46 Y133.80 E135.96906
G1 X177.06 Y133.50 E135.98604
G1 X176.64 Y133.19 E136.00319
G1 X176.22 Y132.87 E136.02083
G1 X175.65 Y132.47 E136.04417
G1 X175.21 Y132.17 E136.06162
G1 X174.61 Y131.76 E136.08566
G1 X174.19 Y131.49 E136.10263
G1 X173.75 Y131.21 E136.11986
G1 X173.15 Y130.85 E136.14325
G1 X172.71 Y130.59 E136.16017
G1 X172.09 Y130.24 E136.18383
G1 X171.63 Y130.01 E136.20090
G1 X171.15 Y129.78 E136.21867
G1 X170.49 Y129.49 E136.24263
G1 X170.00 Y129.29 E136.25996
G1 X169.35 Y129.06 E136.28312
G1 X168.86 Y128.91 E136.30016
G1 X168.15 Y128.71 E136.32451
G1 X167.64 Y128.60 E136.34211
G1 X167.12 Y128.50 E136.35964
G1 X166.60 Y128.42 E136.37712
G1 X166.08 Y128.37 E136.39451
G1 X165.56 Y128.33 E136.41191
G1 X165.03 Y128.32 E136.42935
G1 X164.51 Y128.32 E136.44681
G1 X163.98 Y128.35 E136.46433
G1 X163.46 Y128.40 E136.48193
G1 X162.93 Y128.46 E136.49960
G1 X162.40 Y128.55 E136.51743
G1 X161.89 Y128.66 E136.53468
G1 X161.40 Y128.78 E136.55162
G1 X160.76 Y128.96 E136.57357
G1 X160.26 Y129.12 E136.59104
G1 X159.76 Y129.31 E136.60878
G1 X159.29 Y129.50 E136.62579
G1 X158.82 Y129.71 E136.64283
G1 X158.19 Y130.01 E136.66604
G1 X157.59 Y130.33 E136.68873
G1 X157.12 Y130.58 E136.70636
G1 X156.51 Y130.93 E136.72973
G1 X156.08 Y131.19 E136.74660
G1 X155.65 Y131.46 E136.76350
G1 X155.20 Y131.75 E136.78111
G1 X154.77 Y132.04 E136.79841
G1 X154.34 Y132.33 E136.81561
G1 X153.93 Y132.63 E136.83263
G1 X153.49 Y132.94 E136.85058
G1 X153.06 Y133.26 E136.86830
G1 X152.64 Y133.58 E136.88583
G1 X148.70 Y136.60 E137.05097
G1 X148.27 Y136.92 E137.06870
G1 X147.84 Y137.23 E137.08631
G1 X147.43 Y137.53 E137.10333
G1 X147.00 Y137.83 E137.12086
G1 X146.17 Y138.38 E137.15402
G1 X145.74 Y138.66 E137.17107
G1 X145.30 Y138.93 E137.18811
G1 X144.85 Y139.19 E137.20542
G1 X144.24 Y139.53 E137.22877
G1 X143.61 Y139.85 E137.25205
G1 X143.15 Y140.06 E137.26895
G1 X142.47 Y140.33 E137.29336
G1 X141.98 Y140.50 E137.31043
G1 X141.31 Y140.69 E137.33364
G1 X140.67 Y140.83 E137.35542
G1 X140.14 Y140.91 E137.37335
G1 X139.63 Y140.96 E137.39035
G1 X139.11 Y140.98 E137.40772
G1 X138.59 Y140.96 E137.42509
G1 X138.08 Y140.92 E137.44192
G1 X137.56 Y140.84 E137.45944
G1 X137.04 Y140.73 E137.47705
G1 X136.53 Y140.59 E137.49462
G1 X136.04 Y140.44 E137.51192
G1 X135.56 Y140.27 E137.52873
G1 X135.10 Y140.09 E137.54529
G1 X134.53 Y139.82 E137.56631
G1 X134.07 Y139.58 E137.58346
G1 X133.63 Y139.33 E137.60039
G1 X133.20 Y139.08 E137.61687
G1 X132.75 Y138.81 E137.63422
G1 X132.17 Y138.45 E137.65692
G1 X131.75 Y138.17 E137.67366
G1 X131.31 Y137.87 E137.69162
G1 X130.88 Y137.57 E137.70885
G1 X130.47 Y137.28 E137.72565
G1 X130.06 Y136.98 E137.74267
G1 X129.65 Y136.68 E137.75931
G1 X129.24 Y136.37 E137.77661
G1 X128.82 Y136.05 E137.79386
G1 X126.44 Y134.22 E137.89397
G1 X125.63 Y133.60 E137.92775
G1 X125.22 Y133.30 E137.94484
G1 X124.80 Y132.99 E137.96207
G1 X124.28 Y132.61 E137.98351
G1 X124.06 Y132.72 E137.99167
G1 X124.06 Y137.63 E138.15477
G1 X126.23 Y139.29 E138.24563
G1 X126.66 Y139.61 E138.26344
G1 X127.09 Y139.94 E138.28138
G1 X127.59 Y140.31 E138.30222
G1 X127.42 Y140.52 E138.31126
G1 X127.12 Y140.78 E138.32465
G1 X126.76 Y140.99 E138.33837
G1 X126.55 Y141.07 E138.34594
G1 X126.07 Y141.20 E138.36246
G1 X125.53 Y141.29 E138.38047
G1 X125.05 Y141.36 E138.39674
G1 X124.47 Y141.43 E138.41607
G1 X124.06 Y141.40 E138.42981
G1 X124.06 Y146.64 E138.60382
G1 F3600 E137.20382
G0 F12000 X124.06 Y149.41
G1 F3600 E138.60382
G1 F2700 X124.06 Y154.52 E138.77381
G1 X124.83 Y154.68 E138.79982
G1 X125.36 Y154.90 E138.81906
G1 X125.83 Y155.22 E138.83777
G1 X126.22 Y155.60 E138.85605
G1 X126.55 Y156.07 E138.87515
G1 X126.79 Y156.61 E138.89481
G1 X126.94 Y157.21 E138.91522
G1 X126.99 Y157.87 E138.93714
G1 X126.94 Y158.51 E138.95872
G1 X126.78 Y159.12 E138.97952
G1 X126.54 Y159.65 E138.99889
G1 X126.21 Y160.12 E139.01813
G1 X125.82 Y160.52 E139.03674
G1 X125.35 Y160.83 E139.05557
G1 X124.82 Y161.06 E139.07463
G1 X124.06 Y161.23 E139.10050
G1 X124.06 Y166.88 E139.28849
G1 X126.28 Y166.91 E139.36240
G1 X128.31 Y166.92 E139.42982
G1 X132.37 Y166.91 E139.56492
G1 X133.00 Y166.84 E139.58609
G1 X133.46 Y166.59 E139.60353
G1 X133.70 Y166.12 E139.62108
G1 X133.75 Y165.47 E139.64255
G1 X133.76 Y164.14 E139.68688
G1 X133.59 Y163.43 E139.71116
G1 X132.97 Y163.07 E139.73518
G1 X131.75 Y162.68 E139.77762
G1 X130.62 Y162.31 E139.81734
G1 X131.33 Y161.45 E139.85438
G1 X131.94 Y160.25 E139.89918
G1 X132.30 Y158.98 E139.94318
G1 X132.44 Y157.64 E139.98797
G1 X132.36 Y156.25 E140.03425
G1 X132.02 Y154.91 E140.08011
G1 X131.46 Y153.66 E140.12591
G1 X130.68 Y152.51 E140.17180
G1 X129.73 Y151.51 E140.21781
G1 X128.62 Y150.68 E140.26405
G1 X127.37 Y150.04 E140.31065
G1 X126.01 Y149.63 E140.35784
G1 X124.06 Y149.41 E140.42309
G1 F3600 E139.02309
G0 F12000 X137.56 Y147.65
G1 F3600 E140.42309
G1 F2700 X137.56 Y178.35 E141.44411
G1 X137.63 Y179.09 E141.46895
G1 X137.89 Y179.62 E141.48845
G1 X138.42 Y179.88 E141.50802
G1 X139.17 Y179.94 E141.53300
G1 X140.91 Y179.95 E141.59084
G1 X142.65 Y179.94 E141.64887
G1 X143.18 Y179.87 E141.66670
G1 X143.60 Y179.63 E141.68257
G1 X143.87 Y179.23 E141.69874
G1 X143.98 Y178.20 E141.73306
G1 X143.98 Y148.00 E142.73745
G1 X143.97 Y147.50 E142.75429
G1 X143.88 Y146.99 E142.77156
G1 X143.61 Y146.56 E142.78835
G1 X143.17 Y146.31 E142.80512
G1 X142.60 Y146.24 E142.82446
G1 X140.78 Y146.23 E142.88479
G1 X138.97 Y146.24 E142.94506
G1 X138.34 Y146.30 E142.96620
G1 X137.88 Y146.55 E142.98370
G1 X137.63 Y147.02 E143.00121
G1 X137.56 Y147.65 E143.02241
G1 F3600 E141.62241
G0 F12000 X148.75 Y152.21
G1 F3600 E143.02241
G1 F2700 X148.33 Y153.54 E143.06870
G1 X148.10 Y154.94 E143.11582
G1 X148.05 Y156.40 E143.16458
G1 X148.18 Y157.93 E143.21566
G1 X148.48 Y159.41 E143.26595
G1 X148.94 Y160.79 E143.31412
G1 X149.55 Y162.05 E143.36071
G1 X150.32 Y163.19 E143.40643
G1 X151.25 Y164.19 E143.45200
G1 X152.34 Y165.06 E143.49831
G1 X153.58 Y165.79 E143.54614
G1 X154.98 Y166.36 E143.59649
G1 X156.32 Y166.72 E143.64275
G1 X157.85 Y166.94 E143.69418
G1 X157.85 Y161.96 E143.85988
G1 X156.55 Y161.57 E143.90520
G1 X155.61 Y160.90 E143.94353
G1 X154.93 Y159.96 E143.98216
G1 X154.72 Y159.41 E144.00150
G1 X154.64 Y159.04 E144.01421
G1 X157.85 Y159.04 E144.12111
G1 X157.85 Y155.14 E144.25076
G1 X154.16 Y155.14 E144.37355
G1 X154.22 Y154.61 E144.39124
G1 X154.46 Y153.91 E144.41602
G1 X154.82 Y153.24 E144.44132
G1 X155.30 Y152.64 E144.46691
G1 X155.87 Y152.12 E144.49242
G1 X156.51 Y151.72 E144.51765
G1 X157.20 Y151.43 E144.54251
G1 X157.92 Y151.29 E144.56673
G1 X159.03 Y151.28 E144.60362
G1 X160.09 Y151.42 E144.63930
G1 X161.12 Y151.74 E144.67506
G1 X162.11 Y152.26 E144.71231
G1 X162.76 Y152.63 E144.73721
G1 X163.30 Y152.73 E144.75559
G1 X163.79 Y152.48 E144.77386
G1 X164.31 Y151.94 E144.79860
G1 X165.76 Y150.29 E144.87186
G1 X166.15 Y149.76 E144.89365
G1 X166.28 Y149.26 E144.91075
G1 X166.09 Y148.79 E144.92779
G1 X165.64 Y148.31 E144.94947
G1 X164.40 Y147.35 E145.00173
G1 X163.04 Y146.63 E145.05271
G1 X161.60 Y146.13 E145.10350
G1 X160.07 Y145.85 E145.15522
G1 X158.01 Y145.75 E145.22379
G1 X156.02 Y145.97 E145.29055
G1 X155.04 Y146.23 E145.32405
G1 X154.10 Y146.59 E145.35772
G1 X153.18 Y147.07 E145.39209
G1 X152.30 Y147.68 E145.42766
G1 X151.14 Y148.69 E145.47901
G1 X150.16 Y149.78 E145.52793
G1 X149.36 Y150.96 E145.57515
G1 X148.75 Y152.21 E145.62147
G1 F3600 E144.22147
G0 F12000 X158.50 Y155.14
G1 F3600 E145.62147
G1 F2700 X158.50 Y159.04 E145.75112
G1 X161.49 Y159.04 E145.85030
G1 X161.22 Y160.00 E145.88342
G1 X160.60 Y160.93 E145.92054
G1 X159.74 Y161.57 E145.95641
G1 X158.50 Y161.96 E145.99930
G1 X158.50 Y166.96 E146.16563
G1 X160.26 Y166.77 E146.22431
G1 X161.71 Y166.37 E146.27451
G1 X163.06 Y165.75 E146.32362
G1 X164.27 Y164.94 E146.37213
G1 X165.33 Y163.96 E146.42025
G1 X166.22 Y162.81 E146.46846
G1 X166.91 Y161.53 E146.51700
G1 X167.41 Y160.12 E146.56651
G1 X167.66 Y158.30 E146.62771
G1 X167.67 Y156.44 E146.68951
G1 X167.60 Y155.83 E146.71020
G1 X167.33 Y155.40 E146.72702
G1 X166.85 Y155.19 E146.74431
G1 X163.90 Y155.14 E146.84244
G1 X158.50 Y155.14 E147.02201
G1 F3600 E145.62201
G0 F12000 X182.09 Y151.53
G1 F3600 E147.02201
G1 F2700 X182.72 Y151.69 E147.04373
G1 X183.40 Y151.93 E147.06755
G1 X184.09 Y152.33 E147.09420
G1 X184.69 Y152.84 E147.12036
G1 X185.18 Y153.46 E147.14660
G1 X185.57 Y154.15 E147.17297
G1 X185.85 Y154.90 E147.19959
G1 X186.00 Y155.70 E147.22683
G1 X186.01 Y156.53 E147.25434
G1 X185.89 Y157.47 E147.28570
G1 X185.66 Y158.31 E147.31480
G1 X185.33 Y159.04 E147.34134
G1 X184.90 Y159.66 E147.36658
G1 X184.38 Y160.18 E147.39111
G1 X183.76 Y160.60 E147.41594
G1 X183.06 Y160.91 E147.44153
G1 X182.09 Y161.15 E147.47464
G1 X182.09 Y166.94 E147.66745
G1 X183.69 Y166.87 E147.72065
G1 X185.07 Y166.58 E147.76782
G1 X186.43 Y166.05 E147.81605
G1 X187.72 Y165.29 E147.86598
G1 X188.69 Y164.54 E147.90675
G1 X189.53 Y163.71 E147.94603
G1 X190.25 Y162.81 E147.98442
G1 X190.86 Y161.84 E148.02244
G1 X191.35 Y160.81 E148.06045
G1 X191.73 Y159.72 E148.09900
G1 X192.01 Y158.56 E148.13841
G1 X192.17 Y157.35 E148.17916
G1 X192.19 Y155.54 E148.23947
G1 X191.94 Y153.78 E148.29853
G1 X191.41 Y152.12 E148.35655
G1 X190.65 Y150.57 E148.41380
G1 X189.65 Y149.19 E148.47060
G1 X188.43 Y147.99 E148.52731
G1 X187.03 Y147.01 E148.58426
G1 X185.45 Y146.28 E148.64214
G1 X183.87 Y145.87 E148.69644
G1 X182.09 Y145.72 E148.75586
G1 X182.09 Y151.53 E148.94926
G1 F3600 E147.54926
G0 F12000 X194.91 Y154.35
G1 F3600 E148.94926
G1 F2700 X194.72 Y156.40 E149.01770
G1 X194.94 Y158.45 E149.08616
G1 X195.52 Y160.36 E149.15273
G1 X196.43 Y162.10 E149.21814
G1 X197.63 Y163.64 E149.28291
G1 X199.08 Y164.92 E149.34740
G1 X200.75 Y165.92 E149.41200
G1 X202.59 Y166.59 E149.47726
G1 X204.78 Y166.93 E149.55103
G1 X204.78 Y161.18 E149.74234
G1 X203.69 Y160.94 E149.77972
G1 X202.86 Y160.56 E149.80981
G1 X202.15 Y160.03 E149.83942
G1 X201.55 Y159.39 E149.86870
G1 X201.08 Y158.65 E149.89783
G1 X200.75 Y157.83 E149.92706
G1 X200.58 Y156.98 E149.95606
G1 X200.58 Y156.09 E149.98540
G1 X200.60 Y155.75 E149.99682
G1 X200.72 Y154.93 E150.02446
G1 X200.99 Y154.18 E150.05107
G1 X201.38 Y153.50 E150.07709
G1 X201.88 Y152.89 E150.10310
G1 X202.46 Y152.39 E150.12877
G1 X203.13 Y151.99 E150.15463
G1 X203.84 Y151.70 E150.18037
G1 X204.78 Y151.50 E150.21231
G1 X204.78 Y145.72 E150.40442
G1 X202.59 Y146.07 E150.47829
G1 X200.74 Y146.76 E150.54400
G1 X199.06 Y147.78 E150.60938
G1 X197.60 Y149.09 E150.67477
G1 X196.39 Y150.66 E150.74040
G1 X195.48 Y152.42 E150.80648
G1 X194.91 Y154.35 E150.87337
G1 F3600 E149.47337
G0 F12000 X205.44 Y151.49
G1 F3600 E150.87337
G1 F2700 X206.50 Y151.73 E150.90963
G1 X207.15 Y152.02 E150.93333
G1 X207.76 Y152.42 E150.95758
G1 X208.32 Y152.95 E150.98320
G1 X208.80 Y153.58 E151.00963
G1 X209.19 Y154.30 E151.03695
G1 X209.46 Y155.12 E151.06547
G1 X209.60 Y156.00 E151.09536
G1 X209.58 Y156.97 E151.12729
G1 X209.44 Y157.72 E151.15295
G1 X209.17 Y158.46 E151.17905
G1 X208.79 Y159.13 E151.20459
G1 X208.31 Y159.73 E151.23037
G1 X207.73 Y160.26 E151.25622
G1 X207.09 Y160.67 E151.28168
G1 X206.37 Y160.97 E151.30742
G1 X205.44 Y161.18 E151.33936
G1 X205.44 Y166.93 E151.53080
G1 X207.61 Y166.59 E151.60395
G1 X209.44 Y165.92 E151.66885
G1 X211.10 Y164.91 E151.73340
G1 X212.55 Y163.62 E151.79800
G1 X213.75 Y162.09 E151.86276
G1 X214.66 Y160.34 E151.92805
G1 X215.23 Y158.44 E151.99424
G1 X215.43 Y156.41 E152.06196
G1 X215.24 Y154.35 E152.13099
G1 X214.67 Y152.41 E152.19812
G1 X213.77 Y150.64 E152.26413
G1 X212.58 Y149.08 E152.32940
G1 X211.13 Y147.78 E152.39432
G1 X209.47 Y146.76 E152.45917
G1 X207.62 Y146.07 E152.52452
G1 X205.44 Y145.72 E152.59820
G1 X205.44 Y151.49 E152.79001
G1 F3600 E151.39001
G0 F12000 X219.44 Y147.63
G1 F3600 E152.79001
G1 F2700 X219.44 Y165.03 E153.36884
G1 X219.51 Y165.62 E153.38882
G1 X219.78 Y166.08 E153.40627
G1 X220.23 Y166.34 E153.42378
G1 X220.83 Y166.42 E153.44376
G1 X222.29 Y166.42 E153.49228
G1 X223.08 Y166.25 E153.51921
G1 X223.36 Y165.96 E153.53266
G1 X224.13 Y164.06 E153.60068
G1 X225.04 Y165.09 E153.64627
G1 X226.33 Y166.03 E153.69962
G1 X227.79 Y166.64 E153.75226
G1 X229.42 Y166.89 E153.80715
G1 X231.18 Y166.82 E153.86561
G1 X232.05 Y166.62 E153.89531
G1 X232.90 Y166.28 E153.92564
G1 X233.41 Y165.93 E153.94639
G1 X233.70 Y165.49 E153.96376
G1 X233.71 Y164.97 E153.98106
G1 X233.48 Y164.41 E154.00130
G1 X231.86 Y161.57 E154.10990
G1 X231.58 Y161.18 E154.12602
G1 X231.21 Y160.91 E154.14120
G1 X230.75 Y160.82 E154.15664
G1 X230.16 Y160.95 E154.17686
G1 X229.52 Y161.12 E154.19886
G1 X228.82 Y161.18 E154.22222
G1 X228.13 Y161.09 E154.24547
G1 X227.44 Y160.84 E154.26989
G1 X226.71 Y160.40 E154.29831
G1 X226.16 Y159.87 E154.32376
G1 X225.82 Y159.18 E154.34920
G1 X225.72 Y158.25 E154.38025
G1 X225.76 Y156.58 E154.43581
G1 X225.77 Y154.90 E154.49186
G1 X225.78 Y153.21 E154.54787
G1 X225.75 Y148.15 E154.71610
G1 X225.69 Y147.19 E154.74808
G1 X225.41 Y146.57 E154.77090
G1 X224.78 Y146.29 E154.79394
G1 X223.80 Y146.24 E154.82642
G1 X222.31 Y146.23 E154.87598
G1 X220.81 Y146.24 E154.92574
G1 X220.21 Y146.31 E154.94585
G1 X219.76 Y146.57 E154.96315
G1 X219.51 Y147.02 E154.98042
G1 X219.44 Y147.63 E155.00061
G1 F3600 E153.60061
G0 F12000 X237.55 Y150.16
G1 F3600 E155.00061
G1 F2700 X237.41 Y151.50 E155.04571
G1 X237.38 Y152.85 E155.09059
G1 X237.37 Y155.54 E155.18000
G1 X237.37 Y160.81 E155.35524
G1 X236.84 Y160.81 E155.37297
G1 X236.13 Y160.81 E155.39659
G1 X235.55 Y160.89 E155.41583
G1 X235.12 Y161.12 E155.43212
G1 X234.87 Y161.53 E155.44829
G1 X234.78 Y162.09 E155.46712
G1 X234.77 Y163.12 E155.50125
G1 X234.76 Y164.13 E155.53507
G1 X234.78 Y165.16 E155.56927
G1 X234.87 Y165.71 E155.58786
G1 X235.13 Y166.12 E155.60406
G1 X235.57 Y166.35 E155.62062
G1 X236.59 Y166.43 E155.65456
G1 X237.32 Y166.43 E155.67868
G1 X237.37 Y166.45 E155.68057
G1 X237.37 Y171.63 E155.85292
G1 X237.43 Y172.08 E155.86791
G1 X237.62 Y172.46 E155.88205
G1 X237.96 Y172.72 E155.89628
G1 X238.40 Y172.81 E155.91134
G1 X239.79 Y172.86 E155.95744
G1 X241.15 Y172.89 E156.00295
G1 X242.54 Y172.89 E156.04901
G1 X243.01 Y172.80 E156.06489
G1 X243.36 Y172.53 E156.07960
G1 X243.55 Y172.13 E156.09442
G1 X243.60 Y171.66 E156.11011
G1 X243.60 Y169.36 E156.18688
G1 X243.60 Y166.42 E156.28449
G1 X247.34 Y166.42 E156.40902
G1 X248.08 Y166.35 E156.43367
G1 X248.60 Y166.08 E156.45325
G1 X248.87 Y165.55 E156.47306
G1 X248.94 Y164.41 E156.51108
G1 X248.94 Y162.45 E156.57623
G1 X248.87 Y161.69 E156.60169
G1 X248.59 Y161.15 E156.62173
G1 X248.04 Y160.88 E156.64196
G1 X247.27 Y160.81 E156.66780
G1 X243.60 Y160.81 E156.78983
G1 X243.60 Y155.57 E156.96415
G1 X243.61 Y154.23 E157.00858
G1 X243.66 Y152.91 E157.05278
G1 X243.77 Y152.31 E157.07297
G1 X244.02 Y151.95 E157.08734
G1 X244.41 Y151.77 E157.10175
G1 X245.02 Y151.74 E157.12215
G1 X246.33 Y151.98 E157.16653
G1 X247.70 Y152.32 E157.21319
G1 X248.17 Y152.26 E157.22895
G1 X248.50 Y151.93 E157.24450
G1 X248.96 Y150.69 E157.28837
G1 X249.41 Y149.28 E157.33781
G1 X249.72 Y148.15 E157.37685
G1 X249.67 Y147.71 E157.39130
G1 X249.45 Y147.34 E157.40562
G1 X249.06 Y147.09 E157.42108
G1 X248.15 Y146.74 E157.45353
G1 X247.24 Y146.43 E157.48529
G1 X246.33 Y146.17 E157.51692
G1 X245.41 Y145.96 E157.54841
G1 X244.47 Y145.82 E157.57993
G1 X243.52 Y145.76 E157.61157
G1 X242.56 Y145.77 E157.64350
G1 X241.58 Y145.89 E157.67618
G1 X240.78 Y146.08 E157.70375
G1 X240.05 Y146.38 E157.72988
G1 X239.41 Y146.78 E157.75510
G1 X238.85 Y147.28 E157.77995
G1 X238.39 Y147.87 E157.80497
G1 X238.01 Y148.55 E157.83078
G1 X237.74 Y149.31 E157.85780
G1 X237.55 Y150.16 E157.88642
G1 F3600 E156.48642
G0 F12000 X293.76 Y80.33
G1 F3600 E157.88642
G1 F2700 X293.76 Y224.67 E162.68739
G1 X11.24 Y224.67 E172.08377
G1 X11.24 Y80.33 E176.88474
G1 X293.76 Y80.33 E186.28113
G0 F12000 X292.72 Y80.87
;TYPE:FILL
G1 F2700 X293.21 Y81.37 E186.30462
G0 F12000 X293.21 Y81.93
G1 F2700 X292.15 Y80.87 E186.35472
G0 F12000 X291.58 Y80.87
G1 F2700 X293.21 Y82.50 E186.43143
G0 F12000 X293.21 Y83.06
G1 F2700 X291.02 Y80.87 E186.53477
G0 F12000 X290.45 Y80.87
G1 F2700 X293.21 Y83.63 E186.66469
G0 F12000 X293.21 Y84.19
G1 F2700 X289.89 Y80.87 E186.82123
G0 F12000 X289.32 Y80.87
G1 F2700 X293.21 Y84.76 E187.00439
G0 F12000 X293.21 Y85.33
G1 F2700 X288.76 Y80.87 E187.21413
G0 F12000 X288.19 Y80.87
G1 F2700 X293.21 Y85.89 E187.45049
G0 F12000 X293.21 Y86.46
G1 F2700 X287.62 Y80.87 E187.71347
G0 F12000 X287.06 Y80.87
G1 F2700 X293.21 Y87.02 E188.00303
G0 F12000 X293.21 Y87.59
G1 F2700 X286.49 Y80.87 E188.31921
G0 F12000 X285.93 Y80.87
G1 F2700 X293.21 Y88.15 E188.66202
G0 F12000 X293.21 Y88.72
G1 F2700 X285.36 Y80.87 E189.03140
G0 F12000 X284.80 Y80.87
G1 F2700 X293.21 Y89.28 E189.42740
G0 F12000 X293.21 Y89.85
G1 F2700 X284.23 Y80.87 E189.85003
G0 F12000 X283.67 Y80.87
G1 F2700 X293.21 Y90.42 E190.29926
G0 F12000 X293.21 Y90.98
G1 F2700 X283.10 Y80.87 E190.77508
G0 F12000 X282.53 Y80.87
G1 F2700 X293.21 Y91.55 E191.27753
G0 F12000 X293.21 Y92.11
G1 F2700 X281.97 Y80.87 E191.80658
G0 F12000 X281.40 Y80.87
G1 F2700 X293.21 Y92.68 E192.36223
G0 F12000 X293.21 Y93.25
G1 F2700 X280.84 Y80.87 E192.94450
G0 F12000 X280.27 Y80.87
G1 F2700 X293.21 Y93.81 E193.55339
G0 F12000 X293.21 Y94.38
G1 F2700 X279.70 Y80.87 E194.18886
G0 F12000 X279.14 Y80.87
G1 F2700 X293.21 Y94.94 E194.85095
G0 F12000 X293.21 Y95.51
G1 F2700 X278.57 Y80.87 E195.53967
G0 F12000 X278.01 Y80.87
G1 F2700 X293.21 Y96.07 E196.25496
G0 F12000 X293.21 Y96.64
G1 F2700 X277.44 Y80.87 E196.99687
G0 F12000 X276.88 Y80.87
G1 F2700 X293.21 Y97.20 E197.76541
G0 F12000 X293.21 Y97.77
G1 F2700 X276.31 Y80.87 E198.56052
G0 F12000 X275.75 Y80.87
G1 F2700 X293.21 Y98.34 E199.38225
G0 F12000 X293.21 Y98.90
G1 F2700 X275.18 Y80.87 E200.23061
G0 F12000 X274.61 Y80.87
G1 F2700 X293.21 Y99.47 E201.10557
G0 F12000 X293.21 Y100.03
G1 F2700 X274.05 Y80.87 E202.00713
G0 F12000 X273.48 Y80.87
G1 F2700 X293.21 Y100.60 E202.93531
G0 F12000 X293.21 Y101.17
G1 F2700 X272.92 Y80.87 E203.89009
G0 F12000 X272.35 Y80.87
G1 F2700 X293.21 Y101.73 E204.87146
G0 F12000 X293.21 Y102.30
G1 F2700 X271.79 Y80.87 E205.87947
G0 F12000 X271.22 Y80.87
